;FLAVOR:Marlin
;TIME:9689
;Filament used: 5.91865m
;Layer height: 0.16
;MINX:55.931
;MINY:52.395
;MINZ:0.24
;MAXX:147.8
;MAXY:169.823
;MAXZ:13.43
;Generated with Cura_SteamEngine 4.8.0
M140 S45
M105
M190 S45
M104 S200
M105
M109 S200
M82 ;absolute extrusion mode
; Ender 3 Custom Start G-code
G92 E0 ; Reset Extruder
G28 ; Home all axes
G1 Z2.0 F3000 ; Move Z Axis up little to prevent scratching of Heat Bed
G1 X0.1 Y20 Z0.3 F5000.0 ; Move to start position
G1 X0.1 Y200.0 Z0.3 F1500.0 E15 ; Draw the first line
G1 X0.4 Y200.0 Z0.3 F5000.0 ; Move to side a little
G1 X0.4 Y20 Z0.3 F1500.0 E30 ; Draw the second line
G92 E0 ; Reset Extruder
G1 Z2.0 F3000 ; Move Z Axis up little to prevent scratching of Heat Bed
G1 X5 Y20 Z0.3 F5000.0 ; Move over to prevent blob squish
G92 E0
G92 E0
G1 F1500 E-6.5
;LAYER_COUNT:77
;LAYER:-6
M107
G0 F9000 X66.913 Y72.204 Z0.24
;TYPE:SUPPORT-INTERFACE
G1 F1500 E0
G1 F1125 X67.846 Y71.385 E0.0991
G1 X67.946 Y71.301 E0.10952
G1 X68.921 Y70.52 E0.20924
G1 X69.058 Y70.416 E0.22297
G1 X70.035 Y69.703 E0.31952
G1 X71.242 Y68.902 E0.43516
G1 X71.309 Y68.859 E0.44151
G1 X72.438 Y68.184 E0.54651
G1 X73.591 Y67.56 E0.65116
G1 X73.664 Y67.523 E0.6577
G1 X74.865 Y66.943 E0.76416
G1 X76.174 Y66.384 E0.87778
G1 X77.352 Y65.941 E0.97824
G1 X77.434 Y65.912 E0.98518
G1 X78.686 Y65.504 E1.0903
G1 X78.764 Y65.48 E1.09681
G1 X79.978 Y65.143 E1.19738
G1 X81.336 Y64.83 E1.30862
G1 X81.469 Y64.803 E1.31946
G1 X82.676 Y64.582 E1.41741
G1 X82.768 Y64.568 E1.42484
G1 X84.156 Y64.381 E1.53663
G1 X85.391 Y64.27 E1.63561
G1 X85.507 Y64.263 E1.64489
G1 X86.922 Y64.201 E1.75795
G1 X87.582 Y64.187 E1.81065
G1 X109.798 Y64.186 E3.58402
G1 X110.466 Y64.144 E3.63745
G1 X111.137 Y64.015 E3.69199
G1 X111.787 Y63.802 E3.74659
G1 X112.403 Y63.509 E3.80105
G1 X112.978 Y63.141 E3.85554
G1 X113.502 Y62.704 E3.91
G1 X113.967 Y62.204 E3.96451
G1 X114.362 Y61.653 E4.01863
G1 X114.553 Y61.32 E4.04927
G1 X114.58 Y61.269 E4.05388
G1 X115.032 Y60.488 E4.12591
G1 X115.132 Y60.33 E4.14083
G1 X115.629 Y59.6 E4.21133
G1 X115.743 Y59.445 E4.22669
G1 X116.28 Y58.769 E4.2956
G1 X116.411 Y58.615 E4.31174
G1 X117.069 Y57.901 E4.38925
G1 X117.159 Y57.811 E4.39941
G1 X117.868 Y57.141 E4.47727
G1 X117.982 Y57.041 E4.48938
G1 X118.686 Y56.466 E4.56194
G1 X118.802 Y56.378 E4.57356
G1 X119.567 Y55.842 E4.64812
G1 X119.687 Y55.765 E4.65951
G1 X120.472 Y55.296 E4.7325
G1 X120.609 Y55.221 E4.74497
G1 X121.409 Y54.819 E4.81644
G1 X121.552 Y54.754 E4.82897
G1 X122.411 Y54.398 E4.9032
G1 X122.564 Y54.341 E4.91623
G1 X123.402 Y54.065 E4.98666
G1 X123.569 Y54.017 E5.00053
G1 X124.444 Y53.797 E5.07255
G1 X124.595 Y53.765 E5.08487
G1 X125.509 Y53.605 E5.15894
G1 X125.634 Y53.588 E5.16901
G1 X126.564 Y53.494 E5.24362
G1 X126.697 Y53.486 E5.25426
G1 X127.528 Y53.459 E5.32063
G1 X131.987 Y53.458 E5.67657
G1 X133.023 Y53.495 E5.75932
G1 X133.146 Y53.504 E5.76916
G1 X134.063 Y53.606 E5.84281
G1 X134.238 Y53.631 E5.85692
G1 X135.127 Y53.795 E5.92908
G1 X135.25 Y53.823 E5.93915
G1 X136.144 Y54.057 E6.01292
G1 X136.307 Y54.106 E6.02651
G1 X137.149 Y54.392 E6.09749
G1 X137.315 Y54.456 E6.11169
G1 X138.118 Y54.797 E6.18133
G1 X138.307 Y54.885 E6.19797
G1 X139.101 Y55.293 E6.26923
G1 X139.218 Y55.36 E6.27999
G1 X139.997 Y55.834 E6.35278
G1 X140.148 Y55.934 E6.36724
G1 X140.862 Y56.445 E6.43733
G1 X141.01 Y56.558 E6.45219
G1 X141.702 Y57.135 E6.52411
G1 X141.81 Y57.231 E6.53565
G1 X142.361 Y57.752 E6.59618
G1 X142.474 Y57.866 E6.60899
G1 X143.124 Y58.566 E6.68525
G1 X143.243 Y58.705 E6.69985
G1 X143.786 Y59.382 E6.76913
G1 X143.909 Y59.547 E6.78556
G1 X144.393 Y60.25 E6.85369
G1 X144.51 Y60.434 E6.87109
G1 X144.953 Y61.19 E6.94104
G1 X145.03 Y61.332 E6.95393
G1 X145.433 Y62.151 E7.02679
G1 X145.489 Y62.277 E7.0378
G1 X145.831 Y63.122 E7.11057
G1 X145.888 Y63.281 E7.12405
G1 X146.162 Y64.135 E7.19564
G1 X146.211 Y64.306 E7.20984
G1 X146.42 Y65.17 E7.2808
G1 X146.453 Y65.328 E7.29368
G1 X146.601 Y66.22 E7.36586
G1 X146.625 Y66.406 E7.38083
G1 X146.707 Y67.29 E7.4517
G1 X146.715 Y67.442 E7.46385
G1 X146.736 Y68.175 E7.52238
G1 X146.736 Y82.927 E8.69995
G1 X146.7 Y83.933 E8.78031
G1 X146.69 Y84.068 E8.79111
G1 X146.588 Y84.985 E8.86476
G1 X146.563 Y85.16 E8.87887
G1 X146.401 Y86.038 E8.95014
G1 X146.371 Y86.172 E8.9611
G1 X146.14 Y87.056 E9.03404
G1 X146.088 Y87.228 E9.04838
G1 X145.802 Y88.071 E9.11944
G1 X145.738 Y88.237 E9.13364
G1 X145.397 Y89.04 E9.20328
G1 X145.316 Y89.215 E9.21867
G1 X144.902 Y90.02 E9.29093
G1 X144.834 Y90.14 E9.30194
G1 X144.36 Y90.919 E9.37473
G1 X144.26 Y91.07 E9.38919
G1 X143.749 Y91.784 E9.45928
G1 X143.636 Y91.932 E9.47414
G1 X143.059 Y92.624 E9.54606
G1 X142.963 Y92.732 E9.5576
G1 X142.481 Y93.244 E9.61373
G1 X142.324 Y93.4 E9.63139
G1 X141.628 Y94.046 E9.70719
G1 X141.489 Y94.165 E9.7218
G1 X140.798 Y94.719 E9.7925
G1 X140.659 Y94.823 E9.80636
G1 X139.944 Y95.315 E9.87564
G1 X139.76 Y95.432 E9.89304
G1 X139.004 Y95.875 E9.96299
G1 X138.862 Y95.952 E9.97588
G1 X138.034 Y96.359 E10.04953
G1 X137.917 Y96.411 E10.05975
G1 X137.062 Y96.756 E10.13335
G1 X136.899 Y96.814 E10.14716
G1 X136.056 Y97.085 E10.21784
G1 X135.892 Y97.131 E10.23144
G1 X135.02 Y97.343 E10.30307
G1 X134.858 Y97.376 E10.31627
G1 X133.965 Y97.524 E10.38852
G1 X133.788 Y97.547 E10.40277
G1 X132.894 Y97.63 E10.47444
G1 X132.752 Y97.637 E10.48579
G1 X132.011 Y97.658 E10.54496
G1 X99.871 Y97.658 E13.11052
G1 X99.203 Y97.7 E13.16395
G1 X98.532 Y97.829 E13.21849
G1 X97.883 Y98.042 E13.27301
G1 X97.266 Y98.334 E13.3275
G1 X96.691 Y98.702 E13.382
G1 X96.168 Y99.14 E13.43645
G1 X95.733 Y99.604 E13.48722
G1 X95.242 Y100.176 E13.5474
G1 X94.555 Y100.92 E13.62823
G1 X94.422 Y101.053 E13.64325
G1 X93.598 Y101.816 E13.73289
G1 X93.024 Y102.305 E13.79308
G1 X92.543 Y102.771 E13.84654
G1 X92.116 Y103.304 E13.90106
G1 X91.76 Y103.887 E13.95558
G1 X91.48 Y104.509 E14.01003
G1 X91.281 Y105.163 E14.0646
G1 X91.166 Y105.833 E14.11887
G1 X91.136 Y106.396 E14.16387
G1 X91.136 Y115.823 E14.91637
G1 X91.178 Y116.491 E14.9698
G1 X91.307 Y117.162 E15.02435
G1 X91.52 Y117.811 E15.07887
G1 X91.812 Y118.428 E15.13336
G1 X92.18 Y119.003 E15.18785
G1 X92.618 Y119.526 E15.24231
G1 X93.085 Y119.964 E15.29342
G1 X93.654 Y120.452 E15.35325
G1 X94.398 Y121.139 E15.43409
G1 X94.541 Y121.282 E15.45023
G1 X95.27 Y122.071 E15.53598
G1 X95.778 Y122.666 E15.59843
G1 X96.244 Y123.148 E15.65195
G1 X96.776 Y123.575 E15.7064
G1 X97.359 Y123.932 E15.76097
G1 X97.981 Y124.212 E15.81542
G1 X98.634 Y124.412 E15.86994
G1 X99.305 Y124.527 E15.92428
G1 X99.873 Y124.558 E15.96969
G1 X132.022 Y124.559 E18.53596
G1 X133.023 Y124.595 E18.61592
G1 X133.146 Y124.604 E18.62576
G1 X134.063 Y124.706 E18.69941
G1 X134.238 Y124.731 E18.71352
G1 X135.127 Y124.895 E18.78568
G1 X135.25 Y124.923 E18.79575
G1 X136.144 Y125.157 E18.86952
G1 X136.307 Y125.206 E18.88311
G1 X137.149 Y125.492 E18.95409
G1 X137.315 Y125.556 E18.96829
G1 X138.118 Y125.897 E19.03793
G1 X138.307 Y125.985 E19.05457
G1 X139.101 Y126.393 E19.12583
G1 X139.218 Y126.46 E19.13659
G1 X139.997 Y126.934 E19.20938
G1 X140.148 Y127.034 E19.22384
G1 X140.862 Y127.545 E19.29393
G1 X141.01 Y127.658 E19.30879
G1 X141.702 Y128.235 E19.38071
G1 X141.81 Y128.331 E19.39225
G1 X142.322 Y128.813 E19.44838
G1 X142.478 Y128.97 E19.46605
G1 X143.124 Y129.666 E19.54185
G1 X143.243 Y129.805 E19.55645
G1 X143.797 Y130.496 E19.62715
G1 X143.901 Y130.635 E19.64101
G1 X144.393 Y131.35 E19.71029
G1 X144.51 Y131.534 E19.7277
G1 X144.953 Y132.29 E19.79764
G1 X145.03 Y132.432 E19.81053
G1 X145.433 Y133.251 E19.8834
G1 X145.489 Y133.377 E19.8944
G1 X145.831 Y134.222 E19.96717
G1 X145.89 Y134.387 E19.98116
G1 X146.162 Y135.234 E20.05217
G1 X146.208 Y135.396 E20.06561
G1 X146.42 Y136.27 E20.1374
G1 X146.453 Y136.428 E20.15029
G1 X146.601 Y137.32 E20.22246
G1 X146.625 Y137.506 E20.23743
G1 X146.707 Y138.39 E20.3083
G1 X146.715 Y138.542 E20.32045
G1 X146.736 Y139.275 E20.37899
G1 X146.736 Y154.026 E21.55647
G1 X146.7 Y155.032 E21.63683
G1 X146.69 Y155.168 E21.64771
G1 X146.588 Y156.085 E21.72137
G1 X146.563 Y156.26 E21.73548
G1 X146.401 Y157.138 E21.80675
G1 X146.371 Y157.272 E21.81771
G1 X146.136 Y158.171 E21.89188
G1 X146.093 Y158.314 E21.9038
G1 X145.802 Y159.171 E21.97605
G1 X145.738 Y159.337 E21.99025
G1 X145.397 Y160.14 E22.05989
G1 X145.316 Y160.315 E22.07528
G1 X144.901 Y161.123 E22.14779
G1 X144.834 Y161.24 E22.15855
G1 X144.36 Y162.019 E22.23134
G1 X144.26 Y162.17 E22.2458
G1 X143.749 Y162.884 E22.31588
G1 X143.636 Y163.032 E22.33075
G1 X143.059 Y163.724 E22.40267
G1 X142.963 Y163.832 E22.4142
G1 X142.481 Y164.344 E22.47033
G1 X142.336 Y164.489 E22.4867
G1 X141.63 Y165.144 E22.56358
G1 X141.491 Y165.263 E22.57818
G1 X140.798 Y165.819 E22.64911
G1 X140.659 Y165.923 E22.66296
G1 X139.944 Y166.415 E22.73224
G1 X139.76 Y166.532 E22.74965
G1 X139.004 Y166.975 E22.81959
G1 X138.862 Y167.052 E22.83249
G1 X138.034 Y167.459 E22.90614
G1 X137.917 Y167.511 E22.91636
G1 X137.062 Y167.856 E22.98995
G1 X136.899 Y167.914 E23.00376
G1 X136.056 Y168.185 E23.07445
G1 X135.892 Y168.231 E23.08804
G1 X135.02 Y168.443 E23.15968
G1 X134.858 Y168.476 E23.17288
G1 X133.965 Y168.624 E23.24513
G1 X133.788 Y168.647 E23.25938
G1 X132.894 Y168.73 E23.33105
G1 X132.752 Y168.737 E23.3424
G1 X132.011 Y168.758 E23.40157
G1 X127.554 Y168.757 E23.75735
G1 X126.553 Y168.721 E23.8373
G1 X126.43 Y168.712 E23.84715
G1 X125.513 Y168.61 E23.9208
G1 X125.338 Y168.585 E23.93491
G1 X124.449 Y168.421 E24.00707
G1 X124.326 Y168.393 E24.01714
G1 X123.432 Y168.159 E24.09091
G1 X123.269 Y168.11 E24.10449
G1 X122.427 Y167.824 E24.17548
G1 X122.261 Y167.76 E24.18968
G1 X121.458 Y167.419 E24.25932
G1 X121.269 Y167.331 E24.27596
G1 X120.475 Y166.923 E24.34722
G1 X120.358 Y166.856 E24.35798
G1 X119.579 Y166.382 E24.43077
G1 X119.428 Y166.282 E24.44523
G1 X118.714 Y165.771 E24.51532
G1 X118.566 Y165.658 E24.53018
G1 X117.88 Y165.087 E24.60143
G1 X117.754 Y164.974 E24.61494
G1 X117.157 Y164.403 E24.68088
G1 X117.022 Y164.266 E24.69623
G1 X116.364 Y163.547 E24.77403
G1 X116.247 Y163.409 E24.78848
G1 X115.704 Y162.718 E24.85863
G1 X115.599 Y162.573 E24.87292
G1 X115.103 Y161.841 E24.9435
G1 X115.007 Y161.689 E24.95785
G1 X114.327 Y160.502 E25.06705
G1 X114.316 Y160.508 E25.06805
G1 X114.203 Y160.323 E25.08535
G1 X113.775 Y159.791 E25.13986
G1 X113.285 Y159.317 E25.19428
G1 X112.737 Y158.907 E25.24891
G1 X112.143 Y158.571 E25.30338
G1 X111.511 Y158.312 E25.3579
G1 X110.852 Y158.136 E25.41235
G1 X110.18 Y158.044 E25.46649
G1 X109.792 Y158.03 E25.49749
G1 X87.489 Y158.028 E27.27781
G1 X86.81 Y158.012 E27.33202
G1 X85.485 Y157.951 E27.4379
G1 X85.355 Y157.943 E27.4483
G1 X84.147 Y157.834 E27.54512
G1 X82.761 Y157.647 E27.65676
G1 X82.659 Y157.631 E27.665
G1 X81.424 Y157.405 E27.76522
G1 X81.356 Y157.391 E27.77076
G1 X79.969 Y157.071 E27.88439
G1 X78.755 Y156.733 E27.98498
G1 X78.677 Y156.71 E27.99147
G1 X77.434 Y156.305 E28.09583
G1 X77.334 Y156.27 E28.10428
G1 X76.183 Y155.836 E28.20248
G1 X76.082 Y155.796 E28.21115
G1 X74.854 Y155.268 E28.31785
G1 X73.642 Y154.683 E28.42528
G1 X72.389 Y154.005 E28.539
G1 X71.254 Y153.323 E28.6447
G1 X71.159 Y153.262 E28.65371
G1 X70.072 Y152.54 E28.75788
G1 X70.005 Y152.493 E28.76441
G1 X68.992 Y151.753 E28.86455
G1 X67.903 Y150.881 E28.97591
G1 X67.829 Y150.819 E28.98362
G1 X66.878 Y149.981 E29.0848
G1 X65.847 Y148.987 E29.19912
G1 X65.761 Y148.899 E29.20894
G1 X64.956 Y148.049 E29.30239
G1 X64.866 Y147.951 E29.31301
G1 X64.038 Y146.995 E29.41397
G1 X63.961 Y146.903 E29.42354
G1 X63.194 Y145.934 E29.52219
G1 X62.356 Y144.774 E29.63642
G1 X62.318 Y144.719 E29.64176
G1 X61.63 Y143.665 E29.74223
G1 X61.586 Y143.594 E29.7489
G1 X60.916 Y142.461 E29.85397
G1 X60.864 Y142.368 E29.86247
G1 X60.281 Y141.271 E29.96164
G1 X59.669 Y139.99 E30.07497
G1 X59.149 Y138.758 E30.18171
G1 X59.109 Y138.657 E30.19038
G1 X58.662 Y137.444 E30.29357
G1 X58.618 Y137.315 E30.30445
G1 X58.25 Y136.157 E30.40145
G1 X58.212 Y136.026 E30.41233
G1 X57.886 Y134.813 E30.5126
G1 X57.856 Y134.694 E30.52239
G1 X57.594 Y133.515 E30.6188
G1 X57.571 Y133.396 E30.62848
G1 X57.341 Y132.085 E30.73472
G1 X57.33 Y132.012 E30.74062
G1 X57.171 Y130.78 E30.83978
G1 X57.159 Y130.663 E30.84916
G1 X57.046 Y129.292 E30.95897
G1 X56.997 Y128.131 E31.05173
G1 X56.996 Y94.13 E33.76584
G1 X57.047 Y92.909 E33.86339
G1 X57.055 Y92.79 E33.87291
G1 X57.156 Y91.586 E33.96936
G1 X57.179 Y91.371 E33.98662
G1 X57.334 Y90.176 E34.08281
G1 X57.577 Y88.792 E34.19497
G1 X57.595 Y88.695 E34.20285
G1 X57.875 Y87.439 E34.30557
G1 X58.248 Y86.062 E34.41945
G1 X58.631 Y84.86 E34.52015
G1 X58.666 Y84.76 E34.52861
G1 X59.13 Y83.505 E34.63541
G1 X59.157 Y83.437 E34.64125
G1 X59.648 Y82.274 E34.74203
G1 X60.256 Y80.995 E34.85507
G1 X60.308 Y80.893 E34.86421
G1 X60.878 Y79.823 E34.96098
G1 X60.924 Y79.741 E34.96849
G1 X61.592 Y78.611 E35.07327
G1 X62.311 Y77.51 E35.17824
G1 X62.397 Y77.386 E35.19028
G1 X63.145 Y76.348 E35.29241
G1 X63.217 Y76.254 E35.30187
G1 X63.978 Y75.293 E35.39972
G1 X64.049 Y75.208 E35.40856
G1 X64.932 Y74.194 E35.51589
G1 X64.993 Y74.127 E35.52312
G1 X65.814 Y73.263 E35.61826
G1 X65.945 Y73.132 E35.63305
G1 X66.821 Y72.29 E35.73004
G1 X66.913 Y72.204 E35.74009
G0 F9000 X67.2 Y71.952
G1 F1125 X67.2 Y150.264 E41.99129
G0 F9000 X68.8 Y151.599
G1 F1125 X68.8 Y70.616 E48.45571
G0 F9000 X70.4 Y69.46
G1 F1125 X70.4 Y152.757 E55.10483
G0 F9000 X72 Y153.771
G1 F1125 X72 Y68.445 E61.91592
G0 F9000 X73.6 Y67.555
G1 F1125 X73.6 Y154.66 E68.86902
G0 F9000 X75.2 Y155.416
G1 F1125 X75.2 Y66.799 E75.94281
G0 F9000 X76.8 Y66.148
G1 F1125 X76.8 Y156.068 E83.12062
G0 F9000 X78.4 Y156.619
G1 F1125 X78.4 Y65.597 E90.38639
G0 F9000 X80 Y65.137
G1 F1125 X80 Y157.078 E97.72552
G0 F9000 X81.6 Y157.437
G1 F1125 X81.6 Y64.779 E105.12188
G0 F9000 X83.2 Y64.509
G1 F1125 X83.2 Y157.706 E112.56126
G0 F9000 X84.8 Y157.892
G1 F1125 X84.8 Y64.323 E120.03035
G0 F9000 X86.4 Y64.223
G1 F1125 X86.4 Y157.993 E127.51547
G0 F9000 X88 Y158.028
G1 F1125 X88 Y64.186 E135.00635
G0 F9000 X89.6 Y64.186
G1 F1125 X89.6 Y158.028 E142.49722
G0 F9000 X91.2 Y158.028
G1 F1125 X91.2 Y116.606 E145.80371
G0 F9000 X92.8 Y119.697
G1 F1125 X92.8 Y158.028 E148.86345
G0 F9000 X94.4 Y158.028
G1 F1125 X94.4 Y121.141 E151.80793
G0 F9000 X96 Y122.896
G1 F1125 X96 Y158.028 E154.61232
G0 F9000 X97.6 Y158.028
G1 F1125 X97.6 Y124.041 E157.32531
G0 F9000 X99.2 Y124.51
G1 F1125 X99.2 Y158.029 E160.00094
G0 F9000 X100.8 Y158.029
G1 F1125 X100.8 Y124.559 E162.67266
G0 F9000 X102.4 Y124.559
G1 F1125 X102.4 Y158.029 E165.34438
G0 F9000 X104 Y158.029
G1 F1125 X104 Y124.559 E168.0161
G0 F9000 X105.6 Y124.559
G1 F1125 X105.6 Y158.029 E170.68782
G0 F9000 X107.2 Y158.029
G1 F1125 X107.2 Y124.559 E173.35954
G0 F9000 X108.8 Y124.559
G1 F1125 X108.8 Y158.029 E176.03126
G0 F9000 X110.4 Y158.074
G1 F1125 X110.4 Y124.559 E178.70657
G0 F9000 X112 Y124.559
G1 F1125 X112 Y158.512 E181.41685
G0 F9000 X113.6 Y159.621
G1 F1125 X113.6 Y124.559 E184.21565
G0 F9000 X115.2 Y124.559
G1 F1125 X115.2 Y161.984 E187.20307
G0 F9000 X116.8 Y164.023
G1 F1125 X116.8 Y124.559 E190.35326
G0 F9000 X118.4 Y124.559
G1 F1125 X118.4 Y165.519 E193.62287
G0 F9000 X120 Y166.638
G1 F1125 X120 Y124.559 E196.98179
G0 F9000 X121.6 Y124.559
G1 F1125 X121.6 Y167.479 E200.40785
G0 F9000 X123.2 Y168.086
G1 F1125 X123.2 Y124.559 E203.88237
G0 F9000 X124.8 Y124.559
G1 F1125 X124.8 Y168.485 E207.38873
G0 F9000 X126.4 Y168.708
G1 F1125 X126.4 Y124.559 E210.91289
G0 F9000 X128 Y124.559
G1 F1125 X128 Y168.757 E214.44097
G0 F9000 X129.6 Y168.757
G1 F1125 X129.6 Y124.559 E217.96905
G0 F9000 X131.2 Y124.559
G1 F1125 X131.2 Y168.757 E221.49712
G0 F9000 X132.8 Y168.735
G1 F1125 X132.8 Y124.587 E225.02121
G0 F9000 X134.4 Y124.761
G1 F1125 X134.4 Y168.552 E228.51679
G0 F9000 X136 Y168.201
G1 F1125 X136 Y125.12 E231.9557
G0 F9000 X137.6 Y125.678
G1 F1125 X137.6 Y167.639 E235.30521
G0 F9000 X139.2 Y166.861
G1 F1125 X139.2 Y126.45 E238.53099
G0 F9000 X140.8 Y127.501
G1 F1125 X140.8 Y165.818 E241.58962
G0 F9000 X142.4 Y164.425
G1 F1125 X142.4 Y128.892 E244.42602
G0 F9000 X144 Y130.779
G1 F1125 X144 Y162.534 E246.96084
G0 F9000 X145.6 Y159.662
G1 F1125 X145.6 Y133.652 E249.03707
G1 F1500 E242.53707
