;FLAVOR:Marlin
;TIME:1181
;Filament used: 0.649075m
;Layer height: 0.16
;MINX:79.7
;MINY:71.172
;MINZ:0.2
;MAXX:140.3
;MAXY:153.32
;MAXZ:3.88
;Generated with Cura_SteamEngine 4.8.0
M140 S45
M105
M190 S45
M104 S200
M105
M109 S200
M82 ;absolute extrusion mode
; Ender 3 Custom Start G-code
G92 E0 ; Reset Extruder
G28 ; Home all axes
G1 Z2.0 F3000 ; Move Z Axis up little to prevent scratching of Heat Bed
G1 X0.1 Y20 Z0.3 F5000.0 ; Move to start position
G1 X0.1 Y200.0 Z0.3 F1500.0 E15 ; Draw the first line
G1 X0.4 Y200.0 Z0.3 F5000.0 ; Move to side a little
G1 X0.4 Y20 Z0.3 F1500.0 E30 ; Draw the second line
G92 E0 ; Reset Extruder
G1 Z2.0 F3000 ; Move Z Axis up little to prevent scratching of Heat Bed
G1 X5 Y20 Z0.3 F5000.0 ; Move over to prevent blob squish
G92 E0
G92 E0
G1 F1500 E-6.5
;LAYER_COUNT:21
;LAYER:0
M107
G0 F6000 X81.58 Y74.011 Z0.2
;TYPE:SKIRT
G1 F1500 E0
G1 F1200 X81.985 Y73.574 E0.01982
G1 X82.102 Y73.457 E0.02532
G1 X82.688 Y72.927 E0.0516
G1 X83.324 Y72.46 E0.07784
G1 X84.004 Y72.059 E0.1041
G1 X84.722 Y71.729 E0.13038
G1 X85.469 Y71.474 E0.15664
G1 X86.238 Y71.295 E0.1829
G1 X87.022 Y71.195 E0.20918
G1 X87.617 Y71.172 E0.22899
G1 X97.442 Y71.172 E0.55577
G1 X98.231 Y71.212 E0.58204
G1 X99.011 Y71.331 E0.60829
G1 X99.776 Y71.529 E0.63457
G1 X100.516 Y71.803 E0.66082
G1 X101.204 Y72.139 E0.68628
G1 X101.293 Y72.188 E0.68966
G1 X101.965 Y72.604 E0.71595
G1 X102.591 Y73.085 E0.74221
G1 X102.683 Y73.172 E0.74642
G1 X117.323 Y73.172 E1.23334
G1 X117.55 Y72.967 E1.24352
G1 X118.188 Y72.501 E1.2698
G1 X118.707 Y72.188 E1.28995
G1 X118.796 Y72.139 E1.29333
G1 X119.506 Y71.794 E1.31959
G1 X120.248 Y71.522 E1.34587
G1 X121.013 Y71.327 E1.37213
G1 X121.794 Y71.21 E1.3984
G1 X122.558 Y71.172 E1.42384
G1 X132.383 Y71.172 E1.75062
G1 X133.172 Y71.212 E1.7769
G1 X133.952 Y71.331 E1.80314
G1 X134.717 Y71.529 E1.82942
G1 X135.457 Y71.803 E1.85567
G1 X136.166 Y72.151 E1.88194
G1 X136.837 Y72.569 E1.90823
G1 X137.461 Y73.052 E1.93447
G1 X137.898 Y73.457 E1.95429
G1 X138.015 Y73.574 E1.95979
G1 X138.545 Y74.16 E1.98607
G1 X139.012 Y74.796 E2.01232
G1 X139.413 Y75.476 E2.03857
G1 X139.743 Y76.194 E2.06486
G1 X139.998 Y76.941 E2.09111
G1 X140.177 Y77.71 E2.11737
G1 X140.277 Y78.494 E2.14366
G1 X140.3 Y79.089 E2.16346
G1 X140.3 Y88.855 E2.48828
G1 X140.26 Y89.644 E2.51456
G1 X140.141 Y90.424 E2.5408
G1 X139.943 Y91.189 E2.56708
G1 X139.669 Y91.929 E2.59333
G1 X139.321 Y92.638 E2.6196
G1 X138.903 Y93.309 E2.64589
G1 X138.42 Y93.933 E2.67214
G1 X138.015 Y94.37 E2.69195
G1 X137.898 Y94.487 E2.69746
G1 X137.312 Y95.017 E2.72374
G1 X136.676 Y95.484 E2.74998
G1 X135.996 Y95.885 E2.77624
G1 X135.278 Y96.215 E2.80252
G1 X134.531 Y96.47 E2.82877
G1 X133.762 Y96.649 E2.85503
G1 X132.978 Y96.749 E2.88132
G1 X132.383 Y96.772 E2.90112
G1 X122.558 Y96.772 E3.2279
G1 X121.769 Y96.732 E3.25418
G1 X120.989 Y96.613 E3.28042
G1 X120.224 Y96.415 E3.30671
G1 X119.484 Y96.141 E3.33295
G1 X118.796 Y95.805 E3.35842
G1 X118.707 Y95.756 E3.3618
G1 X118.035 Y95.34 E3.38808
G1 X117.409 Y94.859 E3.41434
G1 X117.317 Y94.772 E3.41855
G1 X102.677 Y94.772 E3.90548
G1 X102.45 Y94.977 E3.91565
G1 X101.812 Y95.443 E3.94193
G1 X101.293 Y95.756 E3.96209
G1 X101.204 Y95.805 E3.96547
G1 X100.494 Y96.15 E3.99172
G1 X99.752 Y96.422 E4.01801
G1 X98.987 Y96.617 E4.04427
G1 X98.206 Y96.734 E4.07053
G1 X97.442 Y96.772 E4.09597
G1 X87.617 Y96.772 E4.42276
G1 X86.828 Y96.732 E4.44903
G1 X86.048 Y96.613 E4.47527
G1 X85.283 Y96.415 E4.50156
G1 X84.543 Y96.141 E4.5278
G1 X83.834 Y95.793 E4.55407
G1 X83.163 Y95.375 E4.58036
G1 X82.539 Y94.892 E4.60661
G1 X82.102 Y94.487 E4.62643
G1 X81.985 Y94.37 E4.63193
G1 X81.455 Y93.784 E4.65821
G1 X80.988 Y93.148 E4.68445
G1 X80.587 Y92.468 E4.71071
G1 X80.257 Y91.75 E4.73699
G1 X80.002 Y91.003 E4.76325
G1 X79.823 Y90.234 E4.78951
G1 X79.723 Y89.45 E4.81579
G1 X79.7 Y88.855 E4.8356
G1 X79.7 Y79.089 E5.16042
G1 X79.74 Y78.3 E5.18669
G1 X79.859 Y77.52 E5.21294
G1 X80.057 Y76.755 E5.23922
G1 X80.331 Y76.015 E5.26546
G1 X80.679 Y75.306 E5.29173
G1 X81.097 Y74.635 E5.31803
G1 X81.58 Y74.011 E5.34427
G0 F6000 X81.975 Y74.166
G1 F1200 X82.267 Y73.856 E5.35844
G1 X82.384 Y73.739 E5.36394
G1 X82.956 Y73.225 E5.38952
G1 X83.578 Y72.772 E5.41511
G1 X84.243 Y72.386 E5.44068
G1 X84.945 Y72.071 E5.46628
G1 X85.676 Y71.831 E5.49187
G1 X86.427 Y71.668 E5.51742
G1 X87.192 Y71.584 E5.54302
G1 X87.617 Y71.572 E5.55716
G1 X97.442 Y71.572 E5.88394
G1 X98.21 Y71.612 E5.90952
G1 X98.97 Y71.731 E5.93511
G1 X99.713 Y71.929 E5.96068
G1 X100.432 Y72.203 E5.98627
G1 X101.011 Y72.49 E6.00777
G1 X101.1 Y72.539 E6.01115
G1 X101.754 Y72.944 E6.03673
G1 X102.362 Y73.415 E6.06231
G1 X102.526 Y73.572 E6.06986
G1 X117.475 Y73.572 E6.56707
G1 X117.849 Y73.24 E6.5837
G1 X118.474 Y72.792 E6.60928
G1 X118.9 Y72.539 E6.62576
G1 X118.989 Y72.49 E6.62914
G1 X119.681 Y72.154 E6.65472
G1 X120.404 Y71.892 E6.6803
G1 X121.151 Y71.707 E6.7059
G1 X121.913 Y71.6 E6.73149
G1 X122.558 Y71.572 E6.75296
G1 X132.383 Y71.572 E7.07974
G1 X133.151 Y71.612 E7.10532
G1 X133.911 Y71.731 E7.13091
G1 X134.654 Y71.929 E7.15648
G1 X135.373 Y72.203 E7.18207
G1 X136.059 Y72.55 E7.20764
G1 X136.706 Y72.966 E7.23323
G1 X137.306 Y73.447 E7.2588
G1 X137.616 Y73.739 E7.27297
G1 X137.733 Y73.856 E7.27847
G1 X138.247 Y74.428 E7.30405
G1 X138.7 Y75.05 E7.32964
G1 X139.086 Y75.715 E7.35522
G1 X139.401 Y76.417 E7.38081
G1 X139.641 Y77.148 E7.4064
G1 X139.804 Y77.899 E7.43196
G1 X139.888 Y78.664 E7.45755
G1 X139.9 Y79.089 E7.4717
G1 X139.9 Y88.855 E7.79651
G1 X139.86 Y89.623 E7.82209
G1 X139.741 Y90.383 E7.84768
G1 X139.543 Y91.126 E7.87325
G1 X139.269 Y91.845 E7.89884
G1 X138.922 Y92.531 E7.92441
G1 X138.506 Y93.178 E7.95
G1 X138.025 Y93.778 E7.97557
G1 X137.733 Y94.088 E7.98974
G1 X137.616 Y94.205 E7.99524
G1 X137.044 Y94.719 E8.02082
G1 X136.422 Y95.172 E8.04641
G1 X135.757 Y95.558 E8.07199
G1 X135.055 Y95.873 E8.09758
G1 X134.324 Y96.113 E8.12317
G1 X133.573 Y96.276 E8.14873
G1 X132.808 Y96.36 E8.17432
G1 X132.383 Y96.372 E8.18847
G1 X122.558 Y96.372 E8.51525
G1 X121.79 Y96.332 E8.54083
G1 X121.03 Y96.213 E8.56641
G1 X120.287 Y96.015 E8.59199
G1 X119.568 Y95.741 E8.61758
G1 X118.989 Y95.454 E8.63907
G1 X118.9 Y95.405 E8.64245
G1 X118.246 Y95 E8.66804
G1 X117.638 Y94.529 E8.69362
G1 X117.474 Y94.372 E8.70117
G1 X102.525 Y94.372 E9.19837
G1 X102.151 Y94.704 E9.21501
G1 X101.526 Y95.152 E9.24058
G1 X101.1 Y95.405 E9.25706
G1 X101.011 Y95.454 E9.26044
G1 X100.319 Y95.79 E9.28603
G1 X99.596 Y96.052 E9.3116
G1 X98.849 Y96.237 E9.3372
G1 X98.087 Y96.344 E9.36279
G1 X97.442 Y96.372 E9.38427
G1 X87.617 Y96.372 E9.71105
G1 X86.849 Y96.332 E9.73662
G1 X86.089 Y96.213 E9.76221
G1 X85.346 Y96.015 E9.78778
G1 X84.627 Y95.741 E9.81338
G1 X83.941 Y95.394 E9.83895
G1 X83.294 Y94.978 E9.86453
G1 X82.694 Y94.497 E9.89011
G1 X82.384 Y94.205 E9.90427
G1 X82.267 Y94.088 E9.90977
G1 X81.753 Y93.516 E9.93535
G1 X81.3 Y92.894 E9.96094
G1 X80.914 Y92.229 E9.98652
G1 X80.599 Y91.527 E10.01211
G1 X80.359 Y90.796 E10.0377
G1 X80.196 Y90.045 E10.06326
G1 X80.112 Y89.28 E10.08886
G1 X80.1 Y88.855 E10.103
G1 X80.1 Y79.089 E10.42782
G1 X80.14 Y78.321 E10.4534
G1 X80.259 Y77.561 E10.47898
G1 X80.457 Y76.818 E10.50456
G1 X80.731 Y76.099 E10.53015
G1 X81.078 Y75.413 E10.55572
G1 X81.494 Y74.766 E10.5813
G1 X81.975 Y74.166 E10.60688
G0 F6000 X81.892 Y74.9
G1 F1200 X82.55 Y74.139 E10.64034
G1 X82.667 Y74.022 E10.64584
G1 X83.224 Y73.522 E10.67074
G1 X83.83 Y73.085 E10.69559
G1 X84.48 Y72.714 E10.72048
G1 X85.166 Y72.415 E10.74537
G1 X85.88 Y72.191 E10.77026
G1 X86.613 Y72.044 E10.79512
G1 X87.617 Y71.972 E10.8286
G1 X97.442 Y71.972 E11.15538
G1 X98.189 Y72.012 E11.18026
G1 X98.927 Y72.131 E11.20513
G1 X99.649 Y72.329 E11.23003
G1 X100.345 Y72.602 E11.25489
G1 X100.818 Y72.84 E11.2725
G1 X100.907 Y72.889 E11.27588
G1 X101.542 Y73.284 E11.30076
G1 X102.131 Y73.745 E11.32563
G1 X102.365 Y73.972 E11.33648
G1 X117.624 Y73.972 E11.84399
G1 X118.147 Y73.514 E11.86711
G1 X118.759 Y73.085 E11.89197
G1 X119.093 Y72.889 E11.90485
G1 X119.182 Y72.84 E11.90823
G1 X119.856 Y72.515 E11.93312
G1 X120.56 Y72.263 E11.95799
G1 X121.287 Y72.088 E11.98286
G1 X122.029 Y71.992 E12.00775
G1 X122.558 Y71.972 E12.02535
G1 X132.383 Y71.972 E12.35213
G1 X133.13 Y72.012 E12.37701
G1 X133.868 Y72.131 E12.40188
G1 X134.59 Y72.329 E12.42678
G1 X135.286 Y72.602 E12.45164
G1 X135.949 Y72.949 E12.47653
G1 X136.572 Y73.364 E12.50143
G1 X137.333 Y74.022 E12.53489
G1 X137.45 Y74.139 E12.54039
G1 X137.95 Y74.696 E12.56529
G1 X138.387 Y75.302 E12.59014
G1 X138.758 Y75.952 E12.61503
G1 X139.057 Y76.638 E12.63992
G1 X139.281 Y77.352 E12.66481
G1 X139.428 Y78.085 E12.68968
G1 X139.5 Y79.089 E12.72315
G1 X139.5 Y88.855 E13.04797
G1 X139.46 Y89.602 E13.07285
G1 X139.341 Y90.34 E13.09772
G1 X139.143 Y91.062 E13.12262
G1 X138.87 Y91.758 E13.14748
G1 X138.523 Y92.421 E13.17237
G1 X138.108 Y93.044 E13.19727
G1 X137.45 Y93.805 E13.23073
G1 X137.333 Y93.922 E13.23623
G1 X136.776 Y94.422 E13.26113
G1 X136.17 Y94.859 E13.28598
G1 X135.52 Y95.23 E13.31087
G1 X134.834 Y95.529 E13.33576
G1 X134.12 Y95.753 E13.36065
G1 X133.387 Y95.9 E13.38552
G1 X132.383 Y95.972 E13.41899
G1 X122.558 Y95.972 E13.74578
G1 X121.811 Y95.932 E13.77066
G1 X121.073 Y95.813 E13.79552
G1 X120.351 Y95.615 E13.82042
G1 X119.655 Y95.342 E13.84529
G1 X119.182 Y95.104 E13.8629
G1 X119.093 Y95.055 E13.86628
G1 X118.458 Y94.66 E13.89115
G1 X117.869 Y94.199 E13.91603
G1 X117.635 Y93.972 E13.92687
G1 X102.376 Y93.972 E14.43439
G1 X101.853 Y94.43 E14.45751
G1 X101.241 Y94.859 E14.48237
G1 X100.907 Y95.055 E14.49525
G1 X100.818 Y95.104 E14.49863
G1 X100.144 Y95.429 E14.52351
G1 X99.44 Y95.681 E14.54838
G1 X98.713 Y95.856 E14.57325
G1 X97.971 Y95.952 E14.59814
G1 X97.442 Y95.972 E14.61575
G1 X87.617 Y95.972 E14.94253
G1 X86.87 Y95.932 E14.96741
G1 X86.132 Y95.813 E14.99227
G1 X85.41 Y95.615 E15.01717
G1 X84.714 Y95.342 E15.04204
G1 X84.051 Y94.995 E15.06693
G1 X83.428 Y94.58 E15.09182
G1 X82.667 Y93.922 E15.12528
G1 X82.55 Y93.805 E15.13079
G1 X82.05 Y93.248 E15.15568
G1 X81.613 Y92.642 E15.18053
G1 X81.242 Y91.992 E15.20543
G1 X80.943 Y91.306 E15.23031
G1 X80.719 Y90.592 E15.2552
G1 X80.572 Y89.859 E15.28007
G1 X80.5 Y88.855 E15.31355
G1 X80.5 Y79.089 E15.63837
G1 X80.54 Y78.342 E15.66325
G1 X80.659 Y77.604 E15.68811
G1 X80.857 Y76.882 E15.71301
G1 X81.13 Y76.186 E15.73788
G1 X81.477 Y75.523 E15.76277
G1 X81.892 Y74.9 E15.78766
G0 F6000 X82.289 Y75.039
G1 F1200 X82.833 Y74.422 E15.81502
G1 X82.95 Y74.305 E15.82053
G1 X83.491 Y73.821 E15.84467
G1 X84.082 Y73.398 E15.86884
G1 X84.716 Y73.044 E15.89299
G1 X85.385 Y72.761 E15.91715
G1 X86.081 Y72.553 E15.94131
G1 X86.796 Y72.423 E15.96549
G1 X87.617 Y72.372 E15.99284
G1 X97.442 Y72.372 E16.31963
G1 X98.167 Y72.412 E16.34378
G1 X98.884 Y72.531 E16.36795
G1 X99.583 Y72.729 E16.39211
G1 X100.256 Y73.002 E16.41627
G1 X100.625 Y73.19 E16.43004
G1 X100.714 Y73.239 E16.43342
G1 X101.33 Y73.624 E16.45758
G1 X101.9 Y74.074 E16.48174
G1 X102.202 Y74.372 E16.49585
G1 X117.794 Y74.372 E17.01444
G1 X117.894 Y74.264 E17.01934
G1 X118.444 Y73.79 E17.04348
G1 X119.286 Y73.239 E17.07695
G1 X119.375 Y73.19 E17.08033
G1 X120.029 Y72.876 E17.10446
G1 X120.715 Y72.635 E17.12864
G1 X121.422 Y72.47 E17.15279
G1 X122.144 Y72.385 E17.17697
G1 X122.558 Y72.372 E17.19075
G1 X132.383 Y72.372 E17.51753
G1 X133.108 Y72.412 E17.54168
G1 X133.825 Y72.531 E17.56585
G1 X134.524 Y72.729 E17.59002
G1 X135.197 Y73.002 E17.61417
G1 X135.836 Y73.347 E17.63832
G1 X136.433 Y73.761 E17.66249
G1 X137.05 Y74.305 E17.68985
G1 X137.167 Y74.422 E17.69535
G1 X137.651 Y74.963 E17.71949
G1 X138.074 Y75.554 E17.74367
G1 X138.428 Y76.188 E17.76782
G1 X138.711 Y76.857 E17.79198
G1 X138.919 Y77.553 E17.81614
G1 X139.049 Y78.268 E17.84031
G1 X139.1 Y79.089 E17.86767
G1 X139.1 Y88.855 E18.19249
G1 X139.06 Y89.58 E18.21664
G1 X138.941 Y90.297 E18.24081
G1 X138.743 Y90.996 E18.26498
G1 X138.47 Y91.669 E18.28913
G1 X138.125 Y92.308 E18.31328
G1 X137.711 Y92.905 E18.33745
G1 X137.167 Y93.522 E18.36481
G1 X137.05 Y93.639 E18.37031
G1 X136.509 Y94.123 E18.39445
G1 X135.918 Y94.546 E18.41863
G1 X135.284 Y94.9 E18.44278
G1 X134.615 Y95.183 E18.46694
G1 X133.919 Y95.391 E18.4911
G1 X133.204 Y95.521 E18.51527
G1 X132.383 Y95.572 E18.54263
G1 X122.558 Y95.572 E18.86941
G1 X121.833 Y95.532 E18.89356
G1 X121.116 Y95.413 E18.91773
G1 X120.417 Y95.215 E18.9419
G1 X119.744 Y94.942 E18.96605
G1 X119.375 Y94.754 E18.97983
G1 X119.286 Y94.705 E18.98321
G1 X118.67 Y94.32 E19.00737
G1 X118.1 Y93.87 E19.03152
G1 X117.798 Y93.572 E19.04563
G1 X102.206 Y93.572 E19.56422
G1 X102.106 Y93.68 E19.56912
G1 X101.556 Y94.154 E19.59327
G1 X100.714 Y94.705 E19.62674
G1 X100.625 Y94.754 E19.63012
G1 X99.971 Y95.068 E19.65425
G1 X99.285 Y95.309 E19.67843
G1 X98.578 Y95.474 E19.70258
G1 X97.856 Y95.559 E19.72676
G1 X97.442 Y95.572 E19.74053
G1 X87.617 Y95.572 E20.06731
G1 X86.892 Y95.532 E20.09146
G1 X86.175 Y95.413 E20.11564
G1 X85.476 Y95.215 E20.1398
G1 X84.803 Y94.942 E20.16396
G1 X84.164 Y94.597 E20.18811
G1 X83.567 Y94.183 E20.21227
G1 X82.95 Y93.639 E20.23963
G1 X82.833 Y93.522 E20.24513
G1 X82.349 Y92.981 E20.26928
G1 X81.926 Y92.39 E20.29345
G1 X81.572 Y91.756 E20.3176
G1 X81.289 Y91.087 E20.34176
G1 X81.081 Y90.391 E20.36592
G1 X80.951 Y89.676 E20.39009
G1 X80.9 Y88.855 E20.41745
G1 X80.9 Y79.089 E20.74227
G1 X80.94 Y78.364 E20.76642
G1 X81.059 Y77.647 E20.7906
G1 X81.257 Y76.948 E20.81476
G1 X81.53 Y76.275 E20.83891
G1 X81.875 Y75.636 E20.86307
G1 X82.289 Y75.039 E20.88723
G0 F6000 X82.685 Y75.183
G1 F1200 X83.116 Y74.705 E20.90864
G1 X83.233 Y74.588 E20.91414
G1 X83.758 Y74.119 E20.93756
G1 X84.333 Y73.713 E20.96097
G1 X84.951 Y73.375 E20.9844
G1 X85.602 Y73.108 E21.0078
G1 X86.28 Y72.918 E21.03122
G1 X86.975 Y72.805 E21.05464
G1 X87.617 Y72.772 E21.07602
G1 X97.442 Y72.772 E21.4028
G1 X98.145 Y72.812 E21.42622
G1 X98.839 Y72.931 E21.44964
G1 X99.514 Y73.129 E21.47303
G1 X100.432 Y73.541 E21.5065
G1 X100.521 Y73.59 E21.50988
G1 X101.118 Y73.964 E21.53331
G1 X101.668 Y74.403 E21.55672
G1 X102.036 Y74.772 E21.57405
G1 X117.968 Y74.772 E22.10395
G1 X118.202 Y74.523 E22.11532
G1 X118.74 Y74.068 E22.13875
G1 X119.479 Y73.59 E22.16802
G1 X119.568 Y73.541 E22.1714
G1 X120.203 Y73.237 E22.19482
G1 X120.868 Y73.007 E22.21822
G1 X121.555 Y72.854 E22.24163
G1 X122.558 Y72.772 E22.2751
G1 X132.383 Y72.772 E22.60188
G1 X133.086 Y72.812 E22.6253
G1 X133.78 Y72.931 E22.64872
G1 X134.455 Y73.129 E22.67212
G1 X135.104 Y73.401 E22.69552
G1 X135.718 Y73.746 E22.71895
G1 X136.289 Y74.157 E22.74235
G1 X136.767 Y74.588 E22.76376
G1 X136.884 Y74.705 E22.76926
G1 X137.353 Y75.23 E22.79267
G1 X137.759 Y75.805 E22.81608
G1 X138.097 Y76.423 E22.83951
G1 X138.364 Y77.074 E22.86292
G1 X138.554 Y77.752 E22.88633
G1 X138.667 Y78.447 E22.90975
G1 X138.7 Y79.089 E22.93114
G1 X138.7 Y88.855 E23.25595
G1 X138.66 Y89.558 E23.27937
G1 X138.541 Y90.252 E23.30279
G1 X138.343 Y90.927 E23.32619
G1 X138.071 Y91.576 E23.34959
G1 X137.726 Y92.19 E23.37302
G1 X137.315 Y92.761 E23.39642
G1 X136.884 Y93.239 E23.41783
G1 X136.767 Y93.356 E23.42333
G1 X136.242 Y93.825 E23.44674
G1 X135.667 Y94.231 E23.47015
G1 X135.049 Y94.569 E23.49358
G1 X134.398 Y94.836 E23.51699
G1 X133.72 Y95.026 E23.5404
G1 X133.025 Y95.139 E23.56382
G1 X132.383 Y95.172 E23.58521
G1 X122.558 Y95.172 E23.91199
G1 X121.855 Y95.132 E23.93541
G1 X121.161 Y95.013 E23.95883
G1 X120.486 Y94.815 E23.98222
G1 X119.568 Y94.403 E24.01569
G1 X119.479 Y94.354 E24.01907
G1 X118.882 Y93.98 E24.0425
G1 X118.332 Y93.541 E24.0659
G1 X117.964 Y93.172 E24.08324
G1 X102.032 Y93.172 E24.61314
G1 X101.798 Y93.421 E24.6245
G1 X101.26 Y93.876 E24.64794
G1 X100.521 Y94.354 E24.67721
G1 X100.432 Y94.403 E24.68059
G1 X99.797 Y94.707 E24.70401
G1 X99.132 Y94.937 E24.72741
G1 X98.445 Y95.09 E24.75082
G1 X97.442 Y95.172 E24.78429
G1 X87.617 Y95.172 E25.11107
G1 X86.914 Y95.132 E25.13449
G1 X86.22 Y95.013 E25.15791
G1 X85.545 Y94.815 E25.18131
G1 X84.896 Y94.543 E25.20471
G1 X84.282 Y94.198 E25.22814
G1 X83.711 Y93.787 E25.25154
G1 X83.233 Y93.356 E25.27294
G1 X83.116 Y93.239 E25.27845
G1 X82.647 Y92.714 E25.30186
G1 X82.241 Y92.139 E25.32527
