;FLAVOR:Marlin
;TIME:2229
;Filament used: 1.28962m
;Layer height: 0.16
;MINX:76.839
;MINY:96.823
;MINZ:0.2
;MAXX:143.161
;MAXY:137.637
;MAXZ:6.88
;Generated with Cura_SteamEngine 4.8.0
M140 S45
M105
M190 S45
M104 S200
M105
M109 S200
M82 ;absolute extrusion mode
; Ender 3 Custom Start G-code
G92 E0 ; Reset Extruder
G28 ; Home all axes
G1 Z2.0 F3000 ; Move Z Axis up little to prevent scratching of Heat Bed
G1 X0.1 Y20 Z0.3 F5000.0 ; Move to start position
G1 X0.1 Y200.0 Z0.3 F1500.0 E15 ; Draw the first line
G1 X0.4 Y200.0 Z0.3 F5000.0 ; Move to side a little
G1 X0.4 Y20 Z0.3 F1500.0 E30 ; Draw the second line
G92 E0 ; Reset Extruder
G1 Z2.0 F3000 ; Move Z Axis up little to prevent scratching of Heat Bed
G1 X5 Y20 Z0.3 F5000.0 ; Move over to prevent blob squish
G92 E0
G92 E0
G1 F1500 E-6.5
;LAYER_COUNT:36
;LAYER:0
M107
;MESH:specimen_MachineCher_TICK_Longues_Pins.stl
G0 F6000 X123.035 Y105.623 Z0.2
;TYPE:WALL-INNER
G1 F1500 E0
G1 F1200 X123.004 Y105.577 E0.00184
G1 X122.572 Y105.087 E0.02357
G1 X122.553 Y105.071 E0.0244
G1 X122.081 Y104.655 E0.04532
G1 X121.536 Y104.291 E0.06712
G1 X120.95 Y104.003 E0.08884
G1 X120.331 Y103.792 E0.11059
G1 X119.714 Y103.671 E0.1315
G1 X119.688 Y103.665 E0.13239
G1 X119.664 Y103.664 E0.13319
G1 X119.069 Y103.623 E0.15303
G1 X100.931 Y103.623 E0.7563
G1 X100.312 Y103.665 E0.77693
G1 X99.669 Y103.792 E0.79873
G1 X99.05 Y104.003 E0.82048
G1 X98.464 Y104.291 E0.8422
G1 X97.919 Y104.655 E0.864
G1 X97.448 Y105.07 E0.88488
G1 X97.428 Y105.087 E0.88575
G1 X96.996 Y105.577 E0.90748
G1 X96.965 Y105.623 E0.90932
G1 X78.5 Y105.623 E1.52347
G1 X78.5 Y97.623 E1.78955
G1 X96.966 Y97.623 E2.40373
G1 X96.996 Y97.668 E2.40553
G1 X97.426 Y98.16 E2.42727
G1 X97.919 Y98.592 E2.44907
G1 X98.464 Y98.956 E2.47087
G1 X99.05 Y99.244 E2.49258
G1 X99.669 Y99.455 E2.51433
G1 X100.286 Y99.576 E2.53525
G1 X100.312 Y99.582 E2.53613
G1 X100.337 Y99.583 E2.53697
G1 X100.931 Y99.623 E2.55677
G1 X119.069 Y99.623 E3.16004
G1 X119.688 Y99.582 E3.18067
G1 X120.331 Y99.455 E3.20247
G1 X120.95 Y99.244 E3.22422
G1 X121.536 Y98.956 E3.24594
G1 X122.081 Y98.592 E3.26774
G1 X122.574 Y98.16 E3.28954
G1 X123.004 Y97.668 E3.31127
G1 X123.034 Y97.623 E3.31307
G1 X141.5 Y97.623 E3.92725
G1 X141.5 Y105.623 E4.19334
G1 X123.035 Y105.623 E4.80748
G0 F6000 X122.821 Y106.023
G1 F1200 X122.686 Y105.822 E4.81554
G1 X122.289 Y105.37 E4.83555
G1 X121.837 Y104.973 E4.85555
G1 X121.336 Y104.638 E4.8756
G1 X120.797 Y104.373 E4.89558
G1 X120.227 Y104.179 E4.9156
G1 X119.636 Y104.062 E4.93564
G1 X119.056 Y104.023 E4.95498
G1 X100.944 Y104.023 E5.55738
G1 X100.364 Y104.062 E5.57672
G1 X99.773 Y104.179 E5.59676
G1 X99.203 Y104.373 E5.61678
G1 X98.664 Y104.638 E5.63676
G1 X98.163 Y104.973 E5.6568
G1 X97.711 Y105.37 E5.67681
G1 X97.314 Y105.822 E5.69682
G1 X97.179 Y106.023 E5.70488
G1 X78.1 Y106.023 E6.33945
G1 X78.1 Y97.223 E6.63213
G1 X97.179 Y97.223 E7.26671
G1 X97.314 Y97.424 E7.27476
G1 X97.71 Y97.877 E7.29477
G1 X98.163 Y98.274 E7.3148
G1 X98.664 Y98.609 E7.33485
G1 X99.203 Y98.874 E7.35483
G1 X99.773 Y99.068 E7.37485
G1 X100.364 Y99.185 E7.39489
G1 X100.944 Y99.223 E7.41422
G1 X119.056 Y99.223 E8.01663
G1 X119.636 Y99.185 E8.03596
G1 X120.227 Y99.068 E8.056
G1 X120.797 Y98.874 E8.07603
G1 X121.336 Y98.609 E8.096
G1 X121.837 Y98.274 E8.11605
G1 X122.29 Y97.877 E8.13608
G1 X122.686 Y97.424 E8.1561
G1 X122.821 Y97.223 E8.16415
G1 X141.9 Y97.223 E8.79872
G1 X141.9 Y106.023 E9.09141
G1 X122.821 Y106.023 E9.72598
G0 F6000 X122.607 Y106.423
;TYPE:WALL-OUTER
G1 F1200 X122.368 Y106.066 E9.74027
G1 X122.006 Y105.653 E9.75853
G1 X121.593 Y105.291 E9.7768
G1 X121.136 Y104.985 E9.79509
G1 X120.644 Y104.743 E9.81333
G1 X120.123 Y104.566 E9.83163
G1 X119.584 Y104.459 E9.84991
G1 X119.043 Y104.423 E9.86794
G1 X100.957 Y104.423 E10.46948
G1 X100.416 Y104.459 E10.48752
G1 X99.877 Y104.566 E10.50579
G1 X99.356 Y104.743 E10.5241
G1 X98.864 Y104.985 E10.54233
G1 X98.407 Y105.291 E10.56062
G1 X97.994 Y105.653 E10.57889
G1 X97.632 Y106.066 E10.59716
G1 X97.393 Y106.423 E10.61145
G1 X77.7 Y106.423 E11.26644
G1 X77.7 Y96.823 E11.58573
G1 X97.393 Y96.823 E12.24073
G1 X97.632 Y97.18 E12.25502
G1 X97.994 Y97.594 E12.27331
G1 X98.407 Y97.956 E12.29157
G1 X98.864 Y98.262 E12.30987
G1 X99.356 Y98.504 E12.3281
G1 X99.877 Y98.681 E12.3464
G1 X100.416 Y98.788 E12.36468
G1 X100.957 Y98.823 E12.38271
G1 X119.043 Y98.823 E12.98425
G1 X119.584 Y98.788 E13.00229
G1 X120.123 Y98.681 E13.02056
G1 X120.644 Y98.504 E13.03886
G1 X121.136 Y98.262 E13.0571
G1 X121.593 Y97.956 E13.07539
G1 X122.006 Y97.594 E13.09366
G1 X122.368 Y97.18 E13.11195
G1 X122.607 Y96.823 E13.12624
G1 X142.3 Y96.823 E13.78123
G1 X142.3 Y106.423 E14.10053
G1 X122.607 Y106.423 E14.75552
G0 F6000 X122.858 Y106.006
G0 X123.221 Y105.233
;TYPE:SKIN
G1 F1200 X122.848 Y104.81 E14.77428
G1 X122.319 Y104.345 E14.7977
G1 X121.731 Y103.952 E14.82123
G1 X121.1 Y103.642 E14.84461
G1 X120.432 Y103.414 E14.86809
G1 X119.739 Y103.277 E14.89158
G1 X119.082 Y103.233 E14.91348
G1 X100.918 Y103.233 E15.51762
G1 X100.261 Y103.277 E15.53952
G1 X99.568 Y103.414 E15.56302
G1 X98.9 Y103.642 E15.58649
G1 X98.269 Y103.952 E15.60988
G1 X97.681 Y104.345 E15.6334
G1 X97.152 Y104.81 E15.65682
G1 X96.779 Y105.233 E15.67558
G1 X78.89 Y105.233 E16.27057
G1 X78.89 Y98.013 E16.51071
G1 X96.78 Y98.013 E17.10573
G1 X97.149 Y98.437 E17.12443
G1 X97.681 Y98.902 E17.14793
G1 X98.269 Y99.295 E17.17145
G1 X98.9 Y99.605 E17.19484
G1 X99.568 Y99.833 E17.21831
G1 X100.261 Y99.97 E17.24181
G1 X100.918 Y100.013 E17.26371
G1 X119.082 Y100.013 E17.86784
G1 X119.739 Y99.97 E17.88974
G1 X120.432 Y99.833 E17.91324
G1 X121.1 Y99.605 E17.93671
G1 X121.731 Y99.295 E17.9601
G1 X122.319 Y98.902 E17.98362
G1 X122.851 Y98.437 E18.00712
G1 X123.22 Y98.013 E18.02582
G1 X141.11 Y98.013 E18.62084
G1 X141.11 Y105.233 E18.86098
G1 X123.221 Y105.233 E19.45597
G0 F6000 X123.011 Y105.417
G0 X141.318 Y105.441
G0 X141.39 Y98.522
G0 X140.949 Y98.522
G1 F1200 X140.599 Y98.173 E19.47241
G0 F6000 X140.034 Y98.173
G1 F1200 X140.949 Y99.088 E19.51545
G0 F6000 X140.949 Y99.653
G1 F1200 X139.468 Y98.173 E19.58508
G0 F6000 X138.902 Y98.173
G1 F1200 X140.949 Y100.219 E19.68135
G0 F6000 X140.949 Y100.785
G1 F1200 X138.336 Y98.173 E19.80423
G0 F6000 X137.771 Y98.173
G1 F1200 X140.949 Y101.351 E19.95371
G0 F6000 X140.949 Y101.916
G1 F1200 X137.205 Y98.173 E20.1298
G0 F6000 X136.639 Y98.173
G1 F1200 X140.949 Y102.482 E20.3325
G0 F6000 X140.949 Y103.048
G1 F1200 X136.074 Y98.173 E20.56181
G0 F6000 X135.508 Y98.173
G1 F1200 X140.949 Y103.613 E20.81771
G0 F6000 X140.949 Y104.179
G1 F1200 X134.942 Y98.173 E21.10024
G0 F6000 X134.377 Y98.173
G1 F1200 X140.949 Y104.745 E21.40937
G0 F6000 X140.711 Y105.073
G1 F1200 X133.811 Y98.173 E21.73392
G0 F6000 X133.245 Y98.173
G1 F1200 X140.145 Y105.073 E22.05848
G0 F6000 X139.58 Y105.073
G1 F1200 X132.68 Y98.173 E22.38303
G0 F6000 X132.114 Y98.173
G1 F1200 X139.014 Y105.073 E22.70758
G0 F6000 X138.448 Y105.073
G1 F1200 X131.548 Y98.173 E23.03214
G0 F6000 X130.983 Y98.173
G1 F1200 X137.882 Y105.073 E23.35667
G0 F6000 X137.317 Y105.073
G1 F1200 X130.417 Y98.173 E23.68123
G0 F6000 X129.851 Y98.173
G1 F1200 X136.751 Y105.073 E24.00578
G0 F6000 X136.185 Y105.073
G1 F1200 X129.285 Y98.173 E24.33034
G0 F6000 X128.72 Y98.173
G1 F1200 X135.62 Y105.073 E24.65489
G0 F6000 X135.054 Y105.073
G1 F1200 X128.154 Y98.173 E24.97945
G0 F6000 X127.588 Y98.173
G1 F1200 X134.488 Y105.073 E25.304
G0 F6000 X133.923 Y105.073
G1 F1200 X127.023 Y98.173 E25.62855
G0 F6000 X126.457 Y98.173
G1 F1200 X133.357 Y105.073 E25.95311
G0 F6000 X132.791 Y105.073
G1 F1200 X125.891 Y98.173 E26.27766
G0 F6000 X125.326 Y98.173
G1 F1200 X132.226 Y105.073 E26.60222
G0 F6000 X131.66 Y105.073
G1 F1200 X124.76 Y98.173 E26.92677
G0 F6000 X124.194 Y98.173
G1 F1200 X131.094 Y105.073 E27.25133
G0 F6000 X130.529 Y105.073
G1 F1200 X123.629 Y98.173 E27.57588
G0 F6000 X123.185 Y98.295
G1 F1200 X129.963 Y105.073 E27.8947
G0 F6000 X129.397 Y105.073
G1 F1200 X122.917 Y98.592 E28.19952
G0 F6000 X122.615 Y98.856
G1 F1200 X128.832 Y105.073 E28.49195
G0 F6000 X128.266 Y105.073
G1 F1200 X122.3 Y99.107 E28.77257
G0 F6000 X121.961 Y99.333
G1 F1200 X127.7 Y105.073 E29.04254
G0 F6000 X127.134 Y105.073
G1 F1200 X121.599 Y99.538 E29.30289
G0 F6000 X121.22 Y99.723
G1 F1200 X126.569 Y105.073 E29.55452
G0 F6000 X126.003 Y105.073
G1 F1200 X120.804 Y99.874 E29.79906
G0 F6000 X120.373 Y100.008
G1 F1200 X125.437 Y105.073 E30.03728
G0 F6000 X124.872 Y105.073
G1 F1200 X119.901 Y100.102 E30.2711
G0 F6000 X119.387 Y100.153
G1 F1200 X124.306 Y105.073 E30.5025
G0 F6000 X123.74 Y105.073
G1 F1200 X118.84 Y100.172 E30.733
G0 F6000 X118.274 Y100.172
G1 F1200 X122.123 Y104.021 E30.91405
G0 F6000 X121.878 Y104.387
G0 X120.82 Y103.842
G0 X120.962 Y103.426
G1 F1200 X117.709 Y100.172 E31.06708
G0 F6000 X117.143 Y100.172
G1 F1200 X120.168 Y103.197 E31.20937
G0 F6000 X119.505 Y103.1
G1 F1200 X116.577 Y100.172 E31.34709
G0 F6000 X116.012 Y100.172
G1 F1200 X118.912 Y103.072 E31.4835
G0 F6000 X118.346 Y103.072
G1 F1200 X115.446 Y100.172 E31.61991
G0 F6000 X114.88 Y100.172
G1 F1200 X117.78 Y103.072 E31.75632
G0 F6000 X117.214 Y103.072
G1 F1200 X114.315 Y100.172 E31.8927
G0 F6000 X113.749 Y100.172
G1 F1200 X116.649 Y103.072 E32.02911
G0 F6000 X116.083 Y103.072
G1 F1200 X113.183 Y100.172 E32.16551
G0 F6000 X112.618 Y100.172
G1 F1200 X115.517 Y103.072 E32.3019
G0 F6000 X114.952 Y103.072
G1 F1200 X112.052 Y100.172 E32.4383
G0 F6000 X111.486 Y100.172
G1 F1200 X114.386 Y103.072 E32.57471
G0 F6000 X113.82 Y103.072
G1 F1200 X110.921 Y100.172 E32.71109
G0 F6000 X110.355 Y100.172
G1 F1200 X113.255 Y103.072 E32.8475
G0 F6000 X112.689 Y103.072
G1 F1200 X109.789 Y100.172 E32.98391
G0 F6000 X109.223 Y100.172
G1 F1200 X112.123 Y103.072 E33.12032
G0 F6000 X111.558 Y103.072
G1 F1200 X108.658 Y100.172 E33.25672
G0 F6000 X108.092 Y100.172
G1 F1200 X110.992 Y103.072 E33.39313
G0 F6000 X110.426 Y103.072
G1 F1200 X107.526 Y100.172 E33.52954
G0 F6000 X106.961 Y100.172
G1 F1200 X109.86 Y103.072 E33.66592
G0 F6000 X109.294 Y103.072
G1 F1200 X106.395 Y100.172 E33.8023
G0 F6000 X105.829 Y100.172
G1 F1200 X108.728 Y103.072 E33.93869
G0 F6000 X108.163 Y103.072
G1 F1200 X105.264 Y100.172 E34.07507
G0 F6000 X104.698 Y100.172
G1 F1200 X107.597 Y103.072 E34.21145
G0 F6000 X107.031 Y103.072
G1 F1200 X104.132 Y100.172 E34.34784
G0 F6000 X103.567 Y100.172
G1 F1200 X106.466 Y103.072 E34.48422
G0 F6000 X105.9 Y103.072
G1 F1200 X103.001 Y100.172 E34.62061
G0 F6000 X102.435 Y100.172
G1 F1200 X105.334 Y103.072 E34.75699
G0 F6000 X104.769 Y103.072
G1 F1200 X101.87 Y100.172 E34.89337
G0 F6000 X101.304 Y100.172
G1 F1200 X104.203 Y103.072 E35.02976
G0 F6000 X103.637 Y103.072
G1 F1200 X100.726 Y100.16 E35.1667
G0 F6000 X100.102 Y100.102
G1 F1200 X103.072 Y103.072 E35.3064
G0 F6000 X102.506 Y103.072
G1 F1200 X99.367 Y99.933 E35.45405
G0 F6000 X99.509 Y99.517
G0 X98.605 Y99.149
G0 X98.411 Y99.542
G1 F1200 X101.94 Y103.072 E35.62007
G0 F6000 X101.375 Y103.072
G1 F1200 X96.475 Y98.172 E35.85055
G0 F6000 X95.909 Y98.172
G1 F1200 X100.815 Y103.078 E36.08131
G0 F6000 X100.285 Y103.113
G1 F1200 X95.344 Y98.172 E36.31372
G0 F6000 X94.778 Y98.172
G1 F1200 X99.808 Y103.202 E36.55032
G0 F6000 X99.356 Y103.316
G1 F1200 X94.212 Y98.172 E36.79228
G0 F6000 X93.647 Y98.172
G1 F1200 X98.934 Y103.46 E37.04099
G0 F6000 X98.545 Y103.637
G1 F1200 X93.081 Y98.172 E37.29802
G0 F6000 X92.515 Y98.172
G1 F1200 X98.168 Y103.825 E37.56392
G0 F6000 X97.828 Y104.051
G1 F1200 X91.95 Y98.172 E37.84042
G0 F6000 X91.384 Y98.172
G1 F1200 X97.5 Y104.288 E38.1281
G0 F6000 X97.198 Y104.552
G1 F1200 X90.818 Y98.172 E38.4282
G0 F6000 X90.252 Y98.172
G1 F1200 X96.916 Y104.835 E38.74163
G0 F6000 X96.587 Y105.072
G1 F1200 X89.687 Y98.172 E39.06618
G0 F6000 X89.121 Y98.172
G1 F1200 X96.021 Y105.072 E39.39074
G0 F6000 X95.455 Y105.072
G1 F1200 X88.555 Y98.172 E39.71529
G0 F6000 X87.99 Y98.172
G1 F1200 X94.89 Y105.072 E40.03985
G0 F6000 X94.324 Y105.072
G1 F1200 X87.424 Y98.172 E40.3644
G0 F6000 X86.858 Y98.172
G1 F1200 X93.758 Y105.072 E40.68896
G0 F6000 X93.193 Y105.072
G1 F1200 X86.293 Y98.172 E41.01351
G0 F6000 X85.727 Y98.172
G1 F1200 X92.627 Y105.072 E41.33807
G0 F6000 X92.061 Y105.072
G1 F1200 X85.161 Y98.172 E41.66262
G0 F6000 X84.596 Y98.172
G1 F1200 X91.496 Y105.072 E41.98718
G0 F6000 X90.93 Y105.072
G1 F1200 X84.03 Y98.172 E42.31173
G0 F6000 X83.464 Y98.172
G1 F1200 X90.364 Y105.072 E42.63629
G0 F6000 X89.799 Y105.072
G1 F1200 X82.899 Y98.172 E42.96084
G0 F6000 X82.333 Y98.172
G1 F1200 X89.233 Y105.072 E43.2854
G0 F6000 X88.667 Y105.072
G1 F1200 X81.767 Y98.172 E43.60995
G0 F6000 X81.202 Y98.172
G1 F1200 X88.101 Y105.072 E43.93448
G0 F6000 X87.536 Y105.072
G1 F1200 X80.636 Y98.172 E44.25904
G0 F6000 X80.07 Y98.172
G1 F1200 X86.97 Y105.072 E44.58359
G0 F6000 X86.404 Y105.072
G1 F1200 X79.504 Y98.172 E44.90815
G0 F6000 X79.049 Y98.282
G1 F1200 X85.839 Y105.072 E45.22753
G0 F6000 X85.273 Y105.072
G1 F1200 X79.049 Y98.848 E45.52029
G0 F6000 X79.049 Y99.414
G1 F1200 X84.707 Y105.072 E45.78642
G0 F6000 X84.142 Y105.072
G1 F1200 X79.049 Y99.979 E46.02598
G0 F6000 X79.049 Y100.545
G1 F1200 X83.576 Y105.072 E46.23892
G0 F6000 X83.01 Y105.072
G1 F1200 X79.049 Y101.111 E46.42523
G0 F6000 X79.049 Y101.677
G1 F1200 X82.445 Y105.072 E46.58494
G0 F6000 X81.879 Y105.072
G1 F1200 X79.049 Y102.242 E46.71806
G0 F6000 X79.049 Y102.808
G1 F1200 X81.313 Y105.072 E46.82455
G0 F6000 X80.748 Y105.072
G1 F1200 X79.049 Y103.374 E46.90444
G0 F6000 X79.049 Y103.939
G1 F1200 X80.182 Y105.072 E46.95773
G0 F6000 X79.616 Y105.072
G1 F1200 X79.049 Y104.505 E46.9844
G0 F6000 X78.31 Y104.505
G1 F1500 E40.4844
;MESH:specimen_MachineCher_TICK_Longues_Pins.stl(1)
G0 F6000 X78.682 Y105.441
G0 X97.277 Y106.206
G0 X97.277 Y107.288
G0 X100.995 Y114.036
G0 X100.951 Y115.119
G0 X98.377 Y115.179
G0 X96.876 Y113.874
G0 X78.682 Y113.882
G0 X78.682 Y121.518
G0 X96.876 Y121.526
G0 X100.925 Y119.529
G0 X119.615 Y120.297
G0 X120.522 Y120.54
G0 X123.035 Y121.7
;TYPE:WALL-INNER
G1 F1500 E46.9844
G1 F1200 X123.004 Y121.654 E46.98625
G1 X122.572 Y121.164 E47.00798
G1 X122.553 Y121.148 E47.0088
G1 X122.081 Y120.732 E47.02973
G1 X121.538 Y120.369 E47.05145
G1 X120.952 Y120.079 E47.0732
G1 X120.331 Y119.868 E47.09501
G1 X119.714 Y119.747 E47.11593
G1 X119.688 Y119.741 E47.11681
G1 X119.663 Y119.74 E47.11765
G1 X119.069 Y119.7 E47.13745
G1 X100.931 Y119.7 E47.74072
G1 X100.312 Y119.741 E47.76135
G1 X99.669 Y119.868 E47.78315
G1 X99.048 Y120.079 E47.80497
G1 X98.462 Y120.369 E47.82671
G1 X97.919 Y120.732 E47.84844
G1 X97.448 Y121.147 E47.86932
G1 X97.428 Y121.164 E47.87019
G1 X96.996 Y121.654 E47.89192
G1 X96.965 Y121.7 E47.89376
G1 X78.5 Y121.7 E48.50791
G1 X78.5 Y113.7 E48.77399
G1 X96.965 Y113.7 E49.38814
G1 X96.996 Y113.746 E49.38998
G1 X97.428 Y114.236 E49.41171
G1 X97.447 Y114.252 E49.41254
G1 X97.919 Y114.668 E49.43346
G1 X98.462 Y115.031 E49.45519
G1 X99.048 Y115.321 E49.47693
G1 X99.669 Y115.532 E49.49875
G1 X100.286 Y115.653 E49.51966
G1 X100.312 Y115.659 E49.52055
G1 X100.337 Y115.66 E49.52138
G1 X100.931 Y115.7 E49.54118
G1 X119.069 Y115.7 E50.14445
G1 X119.688 Y115.659 E50.16509
G1 X120.331 Y115.532 E50.18689
G1 X120.952 Y115.321 E50.2087
G1 X121.538 Y115.031 E50.23045
G1 X122.081 Y114.668 E50.25217
G1 X122.552 Y114.253 E50.27305
G1 X122.572 Y114.236 E50.27392
G1 X123.004 Y113.746 E50.29565
G1 X123.035 Y113.7 E50.29749
G1 X141.5 Y113.7 E50.91164
G1 X141.5 Y121.7 E51.17772
G1 X123.035 Y121.7 E51.79187
G0 F6000 X122.821 Y122.1
G1 F1200 X122.686 Y121.899 E51.79993
G1 X122.289 Y121.447 E51.81993
G1 X121.837 Y121.05 E51.83994
G1 X121.337 Y120.716 E51.85994
G1 X120.798 Y120.449 E51.87995
G1 X120.227 Y120.255 E51.90001
G1 X119.636 Y120.138 E51.92004
G1 X119.056 Y120.1 E51.93938
G1 X100.944 Y120.1 E52.54178
G1 X100.364 Y120.138 E52.56112
G1 X99.773 Y120.255 E52.58116
G1 X99.202 Y120.449 E52.60121
G1 X98.663 Y120.716 E52.62122
G1 X98.163 Y121.05 E52.64122
G1 X97.711 Y121.447 E52.66123
G1 X97.314 Y121.899 E52.68124
G1 X97.179 Y122.1 E52.68929
G1 X78.1 Y122.1 E53.32386
G1 X78.1 Y113.3 E53.61655
G1 X97.179 Y113.3 E54.25112
G1 X97.314 Y113.501 E54.25917
