;FLAVOR:Marlin
;TIME:2716
;Filament used: 1.60277m
;Layer height: 0.16
;MINX:69.7
;MINY:82.381
;MINZ:0.2
;MAXX:150.3
;MAXY:151.422
;MAXZ:6.88
;Generated with Cura_SteamEngine 4.8.0
M140 S45
M105
M190 S45
M104 S200
M105
M109 S200
M82 ;absolute extrusion mode
; Ender 3 Custom Start G-code
G92 E0 ; Reset Extruder
G28 ; Home all axes
G1 Z2.0 F3000 ; Move Z Axis up little to prevent scratching of Heat Bed
G1 X0.1 Y20 Z0.3 F5000.0 ; Move to start position
G1 X0.1 Y200.0 Z0.3 F1500.0 E15 ; Draw the first line
G1 X0.4 Y200.0 Z0.3 F5000.0 ; Move to side a little
G1 X0.4 Y20 Z0.3 F1500.0 E30 ; Draw the second line
G92 E0 ; Reset Extruder
G1 Z2.0 F3000 ; Move Z Axis up little to prevent scratching of Heat Bed
G1 X5 Y20 Z0.3 F5000.0 ; Move over to prevent blob squish
G92 E0
G92 E0
G1 F1500 E-6.5
;LAYER_COUNT:36
;LAYER:0
M107
G0 F6000 X72.688 Y84.136 Z0.2
;TYPE:SKIRT
G1 F1500 E0
G1 F1200 X73.324 Y83.669 E0.02624
G1 X74.004 Y83.268 E0.0525
G1 X74.722 Y82.938 E0.07878
G1 X75.469 Y82.683 E0.10504
G1 X76.238 Y82.504 E0.1313
G1 X77.022 Y82.404 E0.15758
G1 X77.617 Y82.381 E0.17739
G1 X97.443 Y82.381 E0.8368
G1 X98.232 Y82.421 E0.86308
G1 X99.012 Y82.54 E0.88932
G1 X99.777 Y82.738 E0.91561
G1 X100.517 Y83.012 E0.94185
G1 X101.118 Y83.301 E0.96403
G1 X101.206 Y83.348 E0.96735
G1 X101.882 Y83.755 E0.99359
G1 X102.515 Y84.228 E1.01988
G1 X102.681 Y84.381 E1.02738
G1 X117.321 Y84.381 E1.51431
G1 X117.582 Y84.149 E1.52593
G1 X118.222 Y83.686 E1.5522
G1 X118.794 Y83.348 E1.5743
G1 X118.882 Y83.301 E1.57762
G1 X119.597 Y82.965 E1.60389
G1 X120.342 Y82.702 E1.63017
G1 X121.109 Y82.517 E1.65641
G1 X121.892 Y82.409 E1.6827
G1 X122.557 Y82.381 E1.70484
G1 X142.383 Y82.381 E2.36425
G1 X143.172 Y82.421 E2.39053
G1 X143.952 Y82.54 E2.41677
G1 X144.717 Y82.738 E2.44306
G1 X145.457 Y83.012 E2.4693
G1 X146.166 Y83.36 E2.49557
G1 X146.837 Y83.778 E2.52186
G1 X147.461 Y84.261 E2.54811
G1 X147.898 Y84.666 E2.56793
G1 X148.015 Y84.783 E2.57343
G1 X148.545 Y85.369 E2.59971
G1 X149.012 Y86.005 E2.62595
G1 X149.413 Y86.685 E2.65221
G1 X149.743 Y87.403 E2.67849
G1 X149.998 Y88.15 E2.70474
G1 X150.177 Y88.919 E2.73101
G1 X150.277 Y89.703 E2.75729
G1 X150.3 Y90.298 E2.7771
G1 X150.3 Y100.064 E3.10192
G1 X150.26 Y100.853 E3.12819
G1 X150.141 Y101.633 E3.15443
G1 X149.943 Y102.398 E3.18072
G1 X149.669 Y103.138 E3.20696
G1 X149.321 Y103.847 E3.23323
G1 X148.903 Y104.518 E3.25952
G1 X148.42 Y105.142 E3.28577
G1 X148.015 Y105.579 E3.30559
G1 X147.898 Y105.696 E3.31109
G1 X147.312 Y106.226 E3.33737
G1 X147.021 Y106.44 E3.34938
G1 X147.461 Y106.78 E3.36788
G1 X147.898 Y107.185 E3.3877
G1 X148.015 Y107.302 E3.3932
G1 X148.545 Y107.888 E3.41948
G1 X149.012 Y108.524 E3.44572
G1 X149.413 Y109.204 E3.47198
G1 X149.743 Y109.922 E3.49826
G1 X149.998 Y110.669 E3.52451
G1 X150.177 Y111.438 E3.55077
G1 X150.277 Y112.222 E3.57706
G1 X150.3 Y112.817 E3.59687
G1 X150.3 Y122.583 E3.92169
G1 X150.26 Y123.372 E3.94796
G1 X150.141 Y124.152 E3.9742
G1 X149.943 Y124.917 E4.00049
G1 X149.669 Y125.657 E4.02673
G1 X149.321 Y126.366 E4.053
G1 X148.903 Y127.037 E4.07929
G1 X148.42 Y127.661 E4.10554
G1 X148.015 Y128.098 E4.12536
G1 X147.952 Y128.161 E4.12832
G1 X148.015 Y128.224 E4.13128
G1 X148.545 Y128.81 E4.15756
G1 X149.012 Y129.446 E4.18381
G1 X149.413 Y130.126 E4.21006
G1 X149.743 Y130.844 E4.23635
G1 X149.998 Y131.591 E4.2626
G1 X150.177 Y132.36 E4.28886
G1 X150.277 Y133.144 E4.31515
G1 X150.3 Y133.739 E4.33495
G1 X150.3 Y143.505 E4.65977
G1 X150.26 Y144.294 E4.68605
G1 X150.141 Y145.074 E4.71229
G1 X149.943 Y145.839 E4.73857
G1 X149.669 Y146.579 E4.76482
G1 X149.321 Y147.288 E4.79109
G1 X148.903 Y147.959 E4.81738
G1 X148.42 Y148.583 E4.84362
G1 X148.015 Y149.02 E4.86344
G1 X147.898 Y149.137 E4.86894
G1 X147.312 Y149.667 E4.89522
G1 X146.676 Y150.134 E4.92147
G1 X145.996 Y150.535 E4.94772
G1 X145.278 Y150.865 E4.97401
G1 X144.531 Y151.12 E5.00026
G1 X143.762 Y151.299 E5.02652
G1 X142.978 Y151.399 E5.05281
G1 X142.383 Y151.422 E5.07261
G1 X122.557 Y151.422 E5.73203
G1 X121.768 Y151.382 E5.7583
G1 X120.988 Y151.263 E5.78455
G1 X120.223 Y151.065 E5.81083
G1 X119.483 Y150.791 E5.83707
G1 X118.882 Y150.502 E5.85926
G1 X118.794 Y150.455 E5.86257
G1 X118.118 Y150.048 E5.88882
G1 X117.485 Y149.575 E5.9151
G1 X117.319 Y149.422 E5.92261
G1 X102.679 Y149.422 E6.40954
G1 X102.415 Y149.657 E6.42129
G1 X101.775 Y150.12 E6.44757
G1 X101.206 Y150.455 E6.46953
G1 X101.118 Y150.502 E6.47284
G1 X100.403 Y150.838 E6.49912
G1 X99.658 Y151.101 E6.5254
G1 X98.891 Y151.286 E6.55164
G1 X98.108 Y151.394 E6.57793
G1 X97.443 Y151.422 E6.60007
G1 X77.617 Y151.422 E7.25948
G1 X76.828 Y151.382 E7.28576
G1 X76.048 Y151.263 E7.312
G1 X75.283 Y151.065 E7.33828
G1 X74.543 Y150.791 E7.36453
G1 X73.834 Y150.443 E7.3908
G1 X73.163 Y150.025 E7.41709
G1 X72.539 Y149.542 E7.44334
G1 X72.102 Y149.137 E7.46315
G1 X71.985 Y149.02 E7.46866
G1 X71.455 Y148.434 E7.49494
G1 X70.988 Y147.798 E7.52118
G1 X70.587 Y147.118 E7.54744
G1 X70.257 Y146.4 E7.57372
G1 X70.002 Y145.653 E7.59997
G1 X69.823 Y144.884 E7.62623
G1 X69.723 Y144.1 E7.65252
G1 X69.7 Y143.505 E7.67233
G1 X69.7 Y133.739 E7.99714
G1 X69.74 Y132.95 E8.02342
G1 X69.859 Y132.17 E8.04966
G1 X70.057 Y131.405 E8.07595
G1 X70.331 Y130.665 E8.10219
G1 X70.679 Y129.956 E8.12846
G1 X71.097 Y129.285 E8.15475
G1 X71.58 Y128.661 E8.181
G1 X71.985 Y128.224 E8.20082
G1 X72.048 Y128.161 E8.20378
G1 X71.985 Y128.098 E8.20674
G1 X71.455 Y127.512 E8.23302
G1 X70.988 Y126.876 E8.25927
G1 X70.587 Y126.196 E8.28552
G1 X70.257 Y125.478 E8.3118
G1 X70.002 Y124.731 E8.33806
G1 X69.823 Y123.962 E8.36432
G1 X69.723 Y123.178 E8.39061
G1 X69.7 Y122.583 E8.41041
G1 X69.7 Y112.817 E8.73523
G1 X69.74 Y112.028 E8.7615
G1 X69.859 Y111.248 E8.78775
G1 X70.057 Y110.483 E8.81403
G1 X70.331 Y109.743 E8.84028
G1 X70.679 Y109.034 E8.86654
G1 X71.097 Y108.363 E8.89284
G1 X71.58 Y107.739 E8.91908
G1 X71.985 Y107.302 E8.9389
G1 X72.102 Y107.185 E8.9444
G1 X72.688 Y106.655 E8.97068
G1 X72.979 Y106.441 E8.9827
G1 X72.539 Y106.101 E9.00119
G1 X72.102 Y105.696 E9.02101
G1 X71.985 Y105.579 E9.02651
G1 X71.455 Y104.993 E9.05279
G1 X70.988 Y104.357 E9.07904
G1 X70.587 Y103.677 E9.10529
G1 X70.257 Y102.959 E9.13157
G1 X70.002 Y102.212 E9.15783
G1 X69.823 Y101.443 E9.18409
G1 X69.723 Y100.659 E9.21038
G1 X69.7 Y100.064 E9.23018
G1 X69.7 Y90.298 E9.555
G1 X69.74 Y89.509 E9.58127
G1 X69.859 Y88.729 E9.60752
G1 X70.057 Y87.964 E9.6338
G1 X70.331 Y87.224 E9.66005
G1 X70.679 Y86.515 E9.68631
G1 X71.097 Y85.844 E9.71261
G1 X71.58 Y85.22 E9.73885
G1 X71.985 Y84.783 E9.75867
G1 X72.102 Y84.666 E9.76417
G1 X72.688 Y84.136 E9.79045
G0 F6000 X72.956 Y84.434
G1 F1200 X73.578 Y83.981 E9.81605
G1 X74.243 Y83.595 E9.84162
G1 X74.945 Y83.28 E9.86721
G1 X75.676 Y83.04 E9.8928
G1 X76.427 Y82.877 E9.91836
G1 X77.192 Y82.793 E9.94396
G1 X77.617 Y82.781 E9.9581
G1 X97.443 Y82.781 E10.61751
G1 X98.211 Y82.821 E10.64309
G1 X98.971 Y82.94 E10.66868
G1 X99.714 Y83.138 E10.69425
G1 X100.433 Y83.412 E10.71985
G1 X100.929 Y83.654 E10.7382
G1 X101.017 Y83.701 E10.74152
G1 X101.676 Y84.098 E10.76711
G1 X102.29 Y84.561 E10.79268
G1 X102.526 Y84.781 E10.80342
G1 X117.472 Y84.781 E11.30052
G1 X117.879 Y84.423 E11.31855
G1 X118.507 Y83.978 E11.34415
G1 X118.983 Y83.701 E11.36247
G1 X119.071 Y83.654 E11.36579
G1 X119.767 Y83.327 E11.39136
G1 X120.494 Y83.074 E11.41696
G1 X121.242 Y82.899 E11.44252
G1 X122.005 Y82.802 E11.4681
G1 X122.557 Y82.781 E11.48647
G1 X142.383 Y82.781 E12.14589
G1 X143.151 Y82.821 E12.17146
G1 X143.911 Y82.94 E12.19705
G1 X144.654 Y83.138 E12.22262
G1 X145.373 Y83.412 E12.24822
G1 X146.059 Y83.759 E12.27379
G1 X146.706 Y84.175 E12.29937
G1 X147.306 Y84.656 E12.32495
G1 X147.616 Y84.948 E12.33911
G1 X147.733 Y85.065 E12.34461
G1 X148.247 Y85.637 E12.37019
G1 X148.7 Y86.259 E12.39578
G1 X149.086 Y86.924 E12.42136
G1 X149.401 Y87.626 E12.44695
G1 X149.641 Y88.357 E12.47254
G1 X149.804 Y89.108 E12.4981
G1 X149.888 Y89.873 E12.5237
G1 X149.9 Y90.298 E12.53784
G1 X149.9 Y100.064 E12.86266
G1 X149.86 Y100.832 E12.88823
G1 X149.741 Y101.592 E12.91382
G1 X149.543 Y102.335 E12.93939
G1 X149.269 Y103.054 E12.96499
G1 X148.922 Y103.74 E12.99056
G1 X148.506 Y104.387 E13.01614
G1 X148.025 Y104.987 E13.04172
G1 X147.733 Y105.297 E13.05588
G1 X147.616 Y105.414 E13.06138
G1 X147.044 Y105.928 E13.08696
G1 X146.422 Y106.381 E13.11255
G1 X146.315 Y106.443 E13.11667
G1 X146.706 Y106.694 E13.13212
G1 X147.306 Y107.175 E13.1577
G1 X147.616 Y107.467 E13.17186
G1 X147.733 Y107.584 E13.17737
G1 X148.247 Y108.156 E13.20294
G1 X148.7 Y108.778 E13.22854
G1 X149.086 Y109.443 E13.25411
G1 X149.401 Y110.145 E13.2797
G1 X149.641 Y110.876 E13.30529
G1 X149.804 Y111.627 E13.33085
G1 X149.888 Y112.392 E13.35645
G1 X149.9 Y112.817 E13.37059
G1 X149.9 Y122.583 E13.69541
G1 X149.86 Y123.351 E13.72099
G1 X149.741 Y124.111 E13.74657
G1 X149.543 Y124.854 E13.77215
G1 X149.269 Y125.573 E13.79774
G1 X148.922 Y126.259 E13.82331
G1 X148.506 Y126.906 E13.84889
G1 X148.025 Y127.506 E13.87447
G1 X147.733 Y127.816 E13.88863
G1 X147.616 Y127.933 E13.89414
G1 X147.368 Y128.156 E13.90523
G1 X147.616 Y128.389 E13.91655
G1 X147.733 Y128.506 E13.92205
G1 X148.247 Y129.078 E13.94763
G1 X148.7 Y129.7 E13.97322
G1 X149.086 Y130.365 E13.9988
G1 X149.401 Y131.067 E14.02439
G1 X149.641 Y131.798 E14.04998
G1 X149.804 Y132.549 E14.07554
G1 X149.888 Y133.314 E14.10113
G1 X149.9 Y133.739 E14.11527
G1 X149.9 Y143.505 E14.44009
G1 X149.86 Y144.273 E14.46567
G1 X149.741 Y145.033 E14.49126
G1 X149.543 Y145.776 E14.51683
G1 X149.269 Y146.495 E14.54242
G1 X148.922 Y147.181 E14.56799
G1 X148.506 Y147.828 E14.59358
G1 X148.025 Y148.428 E14.61915
G1 X147.733 Y148.738 E14.63332
G1 X147.616 Y148.855 E14.63882
G1 X147.044 Y149.369 E14.6644
G1 X146.422 Y149.822 E14.68999
G1 X145.757 Y150.208 E14.71557
G1 X145.055 Y150.523 E14.74116
G1 X144.324 Y150.763 E14.76675
G1 X143.573 Y150.926 E14.79231
G1 X142.808 Y151.01 E14.8179
G1 X142.383 Y151.022 E14.83205
G1 X122.557 Y151.022 E15.49146
G1 X121.789 Y150.982 E15.51704
G1 X121.029 Y150.863 E15.54262
G1 X120.286 Y150.665 E15.5682
G1 X119.567 Y150.391 E15.59379
G1 X119.071 Y150.149 E15.61215
G1 X118.983 Y150.102 E15.61547
G1 X118.324 Y149.705 E15.64105
G1 X117.71 Y149.242 E15.66663
G1 X117.474 Y149.022 E15.67736
G1 X102.527 Y149.022 E16.1745
G1 X102.117 Y149.382 E16.19265
G1 X101.49 Y149.827 E16.21822
G1 X101.017 Y150.102 E16.23642
G1 X100.929 Y150.149 E16.23974
G1 X100.233 Y150.476 E16.26531
G1 X99.506 Y150.729 E16.29092
G1 X98.758 Y150.904 E16.31647
G1 X97.995 Y151.001 E16.34205
G1 X97.443 Y151.022 E16.36042
G1 X77.617 Y151.022 E17.01984
G1 X76.849 Y150.982 E17.04541
G1 X76.089 Y150.863 E17.071
G1 X75.346 Y150.665 E17.09658
G1 X74.627 Y150.391 E17.12217
G1 X73.941 Y150.044 E17.14774
G1 X73.294 Y149.628 E17.17332
G1 X72.694 Y149.147 E17.1989
G1 X72.384 Y148.855 E17.21306
G1 X72.267 Y148.738 E17.21856
G1 X71.753 Y148.166 E17.24414
G1 X71.3 Y147.544 E17.26974
G1 X70.914 Y146.879 E17.29531
G1 X70.599 Y146.177 E17.3209
G1 X70.359 Y145.446 E17.34649
G1 X70.196 Y144.695 E17.37205
G1 X70.112 Y143.93 E17.39765
G1 X70.1 Y143.505 E17.41179
G1 X70.1 Y133.739 E17.73661
G1 X70.14 Y132.971 E17.76219
G1 X70.259 Y132.211 E17.78777
G1 X70.457 Y131.468 E17.81335
G1 X70.731 Y130.749 E17.83894
G1 X71.078 Y130.063 E17.86451
G1 X71.494 Y129.416 E17.89009
G1 X71.975 Y128.816 E17.91567
G1 X72.267 Y128.506 E17.92983
G1 X72.384 Y128.389 E17.93534
G1 X72.632 Y128.166 E17.94643
G1 X72.384 Y127.933 E17.95775
G1 X72.267 Y127.816 E17.96325
G1 X71.753 Y127.244 E17.98883
G1 X71.3 Y126.622 E18.01442
G1 X70.914 Y125.957 E18.03999
G1 X70.599 Y125.255 E18.06559
G1 X70.359 Y124.524 E18.09118
G1 X70.196 Y123.773 E18.11674
G1 X70.112 Y123.008 E18.14233
G1 X70.1 Y122.583 E18.15647
G1 X70.1 Y112.817 E18.48129
G1 X70.14 Y112.049 E18.50687
G1 X70.259 Y111.289 E18.53246
G1 X70.457 Y110.546 E18.55803
G1 X70.731 Y109.827 E18.58362
G1 X71.078 Y109.141 E18.60919
G1 X71.494 Y108.494 E18.63478
G1 X71.975 Y107.894 E18.66035
G1 X72.267 Y107.584 E18.67452
G1 X72.384 Y107.467 E18.68002
G1 X72.956 Y106.953 E18.7056
G1 X73.578 Y106.5 E18.73119
G1 X73.685 Y106.438 E18.7353
G1 X73.294 Y106.187 E18.75076
G1 X72.694 Y105.706 E18.77633
G1 X72.384 Y105.414 E18.7905
G1 X72.267 Y105.297 E18.796
G1 X71.753 Y104.725 E18.82158
G1 X71.3 Y104.103 E18.84717
G1 X70.914 Y103.438 E18.87275
G1 X70.599 Y102.736 E18.89834
G1 X70.359 Y102.005 E18.92393
G1 X70.196 Y101.254 E18.94949
G1 X70.112 Y100.489 E18.97508
G1 X70.1 Y100.064 E18.98923
G1 X70.1 Y90.298 E19.31404
G1 X70.14 Y89.53 E19.33962
G1 X70.259 Y88.77 E19.36521
G1 X70.457 Y88.027 E19.39078
G1 X70.731 Y87.308 E19.41637
G1 X71.078 Y86.622 E19.44194
G1 X71.494 Y85.975 E19.46753
G1 X71.975 Y85.375 E19.4931
G1 X72.267 Y85.065 E19.50727
G1 X72.384 Y84.948 E19.51277
G1 X72.956 Y84.434 E19.53835
G0 F6000 X73.224 Y84.731
G1 F1200 X73.83 Y84.294 E19.5632
G1 X74.48 Y83.923 E19.58809
G1 X75.166 Y83.624 E19.61298
G1 X75.88 Y83.4 E19.63787
G1 X76.613 Y83.253 E19.66274
G1 X77.617 Y83.181 E19.69621
G1 X97.443 Y83.181 E20.35563
G1 X98.19 Y83.221 E20.38051
G1 X98.928 Y83.34 E20.40537
G1 X99.65 Y83.538 E20.43027
G1 X100.346 Y83.811 E20.45514
G1 X100.741 Y84.006 E20.46979
G1 X100.829 Y84.053 E20.47311
G1 X101.469 Y84.441 E20.498
G1 X102.064 Y84.894 E20.52288
G1 X102.367 Y85.181 E20.53676
G1 X117.619 Y85.181 E21.04404
G1 X118.176 Y84.699 E21.06854
G1 X118.79 Y84.273 E21.0934
G1 X119.171 Y84.053 E21.10803
G1 X119.259 Y84.006 E21.11135
G1 X119.937 Y83.69 E21.13623
G1 X120.645 Y83.447 E21.16112
G1 X121.374 Y83.282 E21.18598
G1 X122.117 Y83.195 E21.21086
G1 X122.557 Y83.181 E21.22551
G1 X142.383 Y83.181 E21.88492
G1 X143.13 Y83.221 E21.9098
G1 X143.868 Y83.34 E21.93466
G1 X144.59 Y83.538 E21.95957
G1 X145.286 Y83.811 E21.98443
G1 X145.949 Y84.158 E22.00932
G1 X146.572 Y84.573 E22.03422
G1 X147.333 Y85.231 E22.06768
G1 X147.45 Y85.348 E22.07318
G1 X147.95 Y85.905 E22.09808
G1 X148.387 Y86.511 E22.12293
G1 X148.758 Y87.161 E22.14782
G1 X149.057 Y87.847 E22.17271
G1 X149.281 Y88.561 E22.1976
G1 X149.428 Y89.294 E22.22246
G1 X149.5 Y90.298 E22.25594
G1 X149.5 Y100.064 E22.58076
G1 X149.46 Y100.811 E22.60564
G1 X149.341 Y101.549 E22.6305
G1 X149.143 Y102.271 E22.6554
G1 X148.87 Y102.967 E22.68027
G1 X148.523 Y103.63 E22.70516
G1 X148.108 Y104.253 E22.73006
G1 X147.45 Y105.014 E22.76352
G1 X147.333 Y105.131 E22.76902
G1 X146.776 Y105.631 E22.79392
G1 X146.17 Y106.068 E22.81877
G1 X145.52 Y106.439 E22.84366
G1 X145.506 Y106.445 E22.84417
G1 X145.949 Y106.677 E22.8608
G1 X146.572 Y107.092 E22.8857
G1 X147.333 Y107.75 E22.91916
G1 X147.45 Y107.867 E22.92466
G1 X147.95 Y108.424 E22.94955
G1 X148.387 Y109.03 E22.9744
G1 X148.758 Y109.68 E22.9993
G1 X149.057 Y110.366 E23.02419
G1 X149.281 Y111.08 E23.04908
G1 X149.428 Y111.813 E23.07394
G1 X149.5 Y112.817 E23.10742
G1 X149.5 Y122.583 E23.43224
G1 X149.46 Y123.33 E23.45712
G1 X149.341 Y124.068 E23.48198
G1 X149.143 Y124.79 E23.50688
G1 X148.87 Y125.486 E23.53175
G1 X148.523 Y126.149 E23.55664
G1 X148.108 Y126.772 E23.58154
G1 X147.45 Y127.533 E23.615
G1 X147.333 Y127.65 E23.6205
G1 X146.776 Y128.15 E23.64539
G1 X146.751 Y128.168 E23.64642
G1 X147.333 Y128.672 E23.67203
G1 X147.45 Y128.789 E23.67753
G1 X147.95 Y129.346 E23.70242
G1 X148.387 Y129.952 E23.72727
G1 X148.758 Y130.602 E23.75217
G1 X149.057 Y131.288 E23.77706
G1 X149.281 Y132.002 E23.80194
G1 X149.428 Y132.735 E23.82681
G1 X149.5 Y133.739 E23.86029
G1 X149.5 Y143.505 E24.18511
G1 X149.46 Y144.252 E24.20999
G1 X149.341 Y144.99 E24.23485
G1 X149.143 Y145.712 E24.25975
G1 X148.87 Y146.408 E24.28462
G1 X148.523 Y147.071 E24.30951
G1 X148.108 Y147.694 E24.3344
G1 X147.45 Y148.455 E24.36787
G1 X147.333 Y148.572 E24.37337
G1 X146.776 Y149.072 E24.39826
G1 X146.17 Y149.509 E24.42311
G1 X145.52 Y149.88 E24.44801
G1 X144.834 Y150.179 E24.4729
G1 X144.12 Y150.403 E24.49778
G1 X143.387 Y150.55 E24.52265
G1 X142.383 Y150.622 E24.55613
G1 X122.557 Y150.622 E25.21554
G1 X121.81 Y150.582 E25.24042
G1 X121.072 Y150.463 E25.26529
G1 X120.35 Y150.265 E25.29019
G1 X119.654 Y149.992 E25.31505
G1 X119.259 Y149.797 E25.32971
G1 X119.171 Y149.75 E25.33302
G1 X118.531 Y149.362 E25.35792
